;%_N_140923_madaRest_MPF
;$PATH=/_N_MPF_DIR

; Generated by SprutCAM 
; Date: 24.09.2014
; Time: 23:55:19

; Tools list
; T1 = Cylindrical mill D20 L70, 20mm EndMill
; T3 = Cylindrical mill D8 L39, 8mm EndMill
 
; Workpiece coordinate systems
; G54 = X0 Y0 Z110 A0 B0 C0
 
;Finishing waterline (rest)
N8630 T="T3"; 8mm EndMill
N8640 M6
N8650 G17 G54
N8660 S398 M3
N8670 G0 X270.671 Y260.18 Z10
N8680 Z0
N8690 G1 Z-9.6 M8 F100
N8700 X269.774 Y264.219 F200
N8710 X268.354 Y257.822
N8720 X268.325 Y257.694
N8730 X268.252 Y257.442
N8740 X268.162 Y257.195
N8750 X268.056 Y256.955
N8760 X267.935 Y256.722
N8770 X267.798 Y256.498
N8780 X267.648 Y256.283
N8790 X267.483 Y256.079
N8800 X267.306 Y255.885
N8810 X267.116 Y255.704
N8820 X266.915 Y255.536
N8830 X266.703 Y255.381
N8840 X266.481 Y255.24
N8850 X266.251 Y255.114
N8860 X266.013 Y255.004
N8870 X265.768 Y254.909
N8880 X265.518 Y254.831
N8890 X265.263 Y254.769
N8900 X265.004 Y254.724
N8910 X264.743 Y254.696
N8920 X264.481 Y254.685
N8930 X264.218 Y254.692
N8940 X263.957 Y254.715
N8950 X263.698 Y254.756
N8960 X263.442 Y254.814
N8970 X263.19 Y254.888
N8980 X262.944 Y254.978
N8990 X262.704 Y255.085
N9000 X262.471 Y255.207
N9010 X262.248 Y255.344
N9020 X262.033 Y255.495
N9030 X261.829 Y255.66
N9040 X261.733 Y255.749
N9050 X261.618 Y255.86
N9060 X261.395 Y256.088
N9070 X261.18 Y256.323
N9080 X260.972 Y256.565
N9090 X260.772 Y256.813
N9100 X260.58 Y257.067
N9110 X260.396 Y257.327
N9120 X260.221 Y257.593
N9130 X260.053 Y257.864
N9140 X259.895 Y258.14
N9150 X259.745 Y258.421
N9160 X259.604 Y258.707
N9170 X259.472 Y258.997
N9180 X259.349 Y259.291
N9190 X259.236 Y259.589
N9200 X259.132 Y259.89
N9210 X259.038 Y260.195
N9220 X258.953 Y260.502
N9230 X258.878 Y260.812
N9240 X258.813 Y261.123
N9250 X258.757 Y261.437
N9260 X258.712 Y261.753
N9270 X258.676 Y262.069
N9280 X258.651 Y262.387
N9290 X258.635 Y262.705
N9300 X258.63 Y263.024
N9310 X258.634 Y263.342
N9320 X258.649 Y263.661
N9330 X258.673 Y263.978
N9340 X258.708 Y264.295
N9350 X258.752 Y264.61
N9360 X258.807 Y264.924
N9370 X258.871 Y265.237
N9380 X258.945 Y265.546
N9390 X259.029 Y265.854
N9400 X259.122 Y266.158
N9410 X259.225 Y266.46
N9420 X259.337 Y266.758
N9430 X259.459 Y267.053
N9440 X259.59 Y267.343
N9450 X259.73 Y267.629
N9460 X259.879 Y267.911
N9470 X260.037 Y268.188
N9480 X260.203 Y268.46
N9490 X260.378 Y268.726
N9500 X260.561 Y268.987
N9510 X260.752 Y269.242
N9520 X260.952 Y269.49
N9530 X261.159 Y269.733
N9540 X261.373 Y269.968
N9550 X261.595 Y270.197
N9560 X261.824 Y270.419
N9570 X262.059 Y270.633
N9580 X262.302 Y270.84
N9590 X262.551 Y271.039
N9600 X262.806 Y271.23
N9610 X263.066 Y271.413
N9620 X263.333 Y271.588
N9630 X263.605 Y271.754
N9640 X263.881 Y271.912
N9650 X264.163 Y272.061
N9660 X264.449 Y272.201
N9670 X264.74 Y272.331
N9680 X265.034 Y272.453
N9690 X265.184 Y272.509
N9700 X265.277 Y272.547
N9710 X265.468 Y272.614
N9720 X265.661 Y272.671
N9730 X265.858 Y272.718
N9740 X266.056 Y272.755
N9750 X266.256 Y272.782
N9760 X266.458 Y272.799
N9770 X266.659 Y272.806
N9780 X266.861 Y272.802
N9790 X267.063 Y272.789
N9800 X267.263 Y272.765
N9810 X267.462 Y272.731
N9820 X267.66 Y272.687
N9830 X267.854 Y272.634
N9840 X268.046 Y272.57
N9850 X268.234 Y272.497
N9860 X268.418 Y272.415
N9870 X268.598 Y272.323
N9880 X268.773 Y272.222
N9890 X268.943 Y272.113
N9900 X269.107 Y271.995
N9910 X269.265 Y271.869
N9920 X269.416 Y271.736
N9930 X269.561 Y271.594
N9940 X269.698 Y271.446
N9950 X269.827 Y271.291
N9960 X269.949 Y271.13
N9970 X270.062 Y270.963
N9980 X270.167 Y270.79
N9990 X270.262 Y270.612
N10 X270.349 Y270.43
N20 X270.426 Y270.243
N30 X270.46 Y270.148
N40 X270.53 Y270.213
N50 X270.675 Y270.337
N60 X270.825 Y270.454
N70 X270.981 Y270.564
N80 X271.142 Y270.666
N90 X271.308 Y270.76
N100 X271.478 Y270.847
N110 X271.652 Y270.925
N120 X271.829 Y270.995
N130 X272.01 Y271.056
N140 X272.193 Y271.108
N150 X272.378 Y271.152
N160 X272.566 Y271.187
N170 X272.755 Y271.213
N180 X272.945 Y271.23
N190 X273.135 Y271.238
N200 X273.326 Y271.236
N210 X273.516 Y271.226
N220 X273.706 Y271.207
N230 X273.894 Y271.178
N240 X274.081 Y271.141
N250 X274.266 Y271.095
N260 X274.449 Y271.04
N270 X274.629 Y270.977
N280 X274.805 Y270.904
N290 X274.978 Y270.824
N300 X275.147 Y270.736
N310 X275.311 Y270.639
N320 X275.471 Y270.535
N330 X275.626 Y270.423
N340 X275.775 Y270.305
N350 X275.918 Y270.179
N360 X275.986 Y270.112
N370 X276.104 Y269.992
N380 X276.332 Y269.742
N390 X276.552 Y269.486
N400 X276.763 Y269.222
N410 X276.965 Y268.951
N420 X277.157 Y268.674
N430 X277.341 Y268.39
N440 X277.515 Y268.1
N450 X277.679 Y267.805
N460 X277.833 Y267.504
N470 X277.977 Y267.199
N480 X278.111 Y266.889
N490 X278.234 Y266.574
N500 X278.347 Y266.256
N510 X278.449 Y265.934
N520 X278.54 Y265.608
N530 X278.62 Y265.28
N540 X278.689 Y264.95
N550 X278.748 Y264.617
N560 X278.795 Y264.282
N570 X278.831 Y263.947
N580 X278.855 Y263.61
N590 X278.869 Y263.272
N600 X278.871 Y262.934
N610 X278.862 Y262.597
N620 X278.841 Y262.26
N630 X278.81 Y261.923
N640 X278.767 Y261.588
N650 X278.713 Y261.255
N660 X278.648 Y260.923
N670 X278.572 Y260.594
N680 X278.485 Y260.268
N690 X278.436 Y260.106
N700 X278.394 Y259.946
N710 X278.284 Y259.634
N720 X278.148 Y259.333
N730 X277.988 Y259.043
N740 X277.805 Y258.768
N750 X277.6 Y258.508
N760 X277.374 Y258.267
N770 X277.129 Y258.045
N780 X276.866 Y257.844
N790 X276.588 Y257.665
N800 X276.296 Y257.51
N810 X275.992 Y257.379
N820 X275.679 Y257.274
N830 X275.357 Y257.195
N840 X275.031 Y257.143
N850 X274.701 Y257.118
N860 X274.37 Y257.12
N870 X274.041 Y257.149
N880 X273.715 Y257.206
N890 X273.395 Y257.289
N900 X273.083 Y257.398
N910 X272.781 Y257.533
N920 X272.491 Y257.692
N930 X272.215 Y257.875
N940 X271.955 Y258.079
N950 X271.713 Y258.305
N960 X271.49 Y258.549
N970 X271.289 Y258.811
N980 X271.109 Y259.089
N990 X270.953 Y259.38
N1000 X270.822 Y259.684
N1010 X270.716 Y259.997
N1020 X270.676 Y260.158
N1030 X270.671 Y260.18
N1040 Z-11.2 F100
N1050 X269.774 Y264.219 F200
N1060 X268.557 Y258.741
N1070 X270.991 Y258.74
N1080 X270.671 Y260.18
N1090 Z-12.8 F100
N1100 X269.774 Y264.219 F200
N1110 X268.557 Y258.741
N1120 X270.991 Y258.74
N1130 X270.671 Y260.18
N1140 Z-14.4 F100
N1150 X269.774 Y264.219 F200
N1160 X268.557 Y258.741
N1170 X270.991 Y258.74
N1180 X270.671 Y260.18
N1190 Z-16 F100
N1200 X269.774 Y264.219 F200
N1210 X268.557 Y258.741
N1220 X270.991 Y258.74
N1230 X270.671 Y260.18
N1240 Z-17.6 F100
N1250 X269.774 Y264.219 F200
N1260 X268.557 Y258.741
N1270 X270.991 Y258.74
N1280 X270.671 Y260.18
N1290 Z-19.2 F100
N1300 X269.774 Y264.219 F200
N1310 X268.557 Y258.741
N1320 X270.991 Y258.74
N1330 X270.671 Y260.18
N1340 Z-20.8 F100
N1350 X269.774 Y264.219 F200
N1360 X268.557 Y258.741
N1370 X270.991 Y258.74
N1380 X270.671 Y260.18
N1390 Z-22.4 F100
N1400 X269.774 Y264.219 F200
N1410 X268.557 Y258.741
N1420 X270.991 Y258.74
N1430 X270.671 Y260.18
N1440 Z-24 F100
N1450 X269.774 Y264.219 F200
N1460 X268.557 Y258.741
N1470 X270.991 Y258.74
N1480 X270.671 Y260.18
N1490 Z-25.6 F100
N1500 X269.774 Y264.219 F200
N1510 X268.557 Y258.741
N1520 X270.991 Y258.74
N1530 X270.671 Y260.18
N1540 Z-27.2 F100
N1550 X269.774 Y264.219 F200
N1560 X268.557 Y258.741
N1570 X270.991 Y258.74
N1580 X270.671 Y260.18
N1590 Z-28.8 F100
N1600 X269.774 Y264.219 F200
N1610 X268.557 Y258.741
N1620 X270.991 Y258.74
N1630 X270.671 Y260.18
N1640 Z-30.4 F100
N1650 X269.774 Y264.219 F200
N1660 X268.557 Y258.741
N1670 X270.991 Y258.74
N1680 X270.671 Y260.18
N1690 Z-32 F100
N1700 X269.774 Y264.219 F200
N1710 X268.557 Y258.741
N1720 X270.991 Y258.74
N1730 X270.671 Y260.18
N1740 Z-33.6 F100
N1750 X269.774 Y264.219 F200
N1760 X268.557 Y258.741
N1770 X270.991 Y258.74
N1780 X270.671 Y260.18
N1790 Z-35.2 F100
N1800 X269.774 Y264.219 F200
N1810 X268.557 Y258.741
N1820 X270.991 Y258.74
N1830 X270.671 Y260.18
N1840 Z-36.8 F100
N1850 X269.774 Y264.219 F200
N1860 X268.557 Y258.741
N1870 X270.991 Y258.74
N1880 X270.671 Y260.18
N1890 Z-38.4 F100
N1900 X269.774 Y264.219 F200
N1910 X268.557 Y258.741
N1920 X270.991 Y258.74
N1930 X270.671 Y260.18
N1940 Z-40 F100
N1950 X269.774 Y264.219 F200
N1960 X268.557 Y258.741
N1970 X270.991 Y258.74
N1980 X270.671 Y260.18
N1990 Z-9.598 F100
N2000 X270.725 Y260.1 Z-9.588
N2010 X271.259 Y259.299 Z-9.579
N2020 X272.183 Y257.913 Z-9.599
N2030 X272.848 Y256.916 Z-9.618
N2040 X273.729 Y255.596 Z-9.658
N2050 X274.512 Y254.422 Z-9.708
N2060 X275.62 Y252.76 Z-9.779
N2070 X276.297 Y251.746 Z-9.832
N2080 X277.006 Y250.683 Z-9.942
N2090 X277.984 Y249.218 Z-10.12
N2100 X278.965 Y247.747 Z-10.325
N2110 X279.949 Y246.271 Z-10.559
N2120 X280.936 Y244.791 Z-10.821
N2130 X281.926 Y243.307 Z-11.112
N2140 X282.195 Y242.904 Z-11.199
N2150 Z-11.2
N2160 X281.769 Y242.62 F200
N2170 X281.558 Y242.486
N2180 X281.131 Y242.225
N2190 X280.698 Y241.974
N2200 X280.26 Y241.731
N2210 X279.817 Y241.498
N2220 X279.37 Y241.274
N2230 X278.917 Y241.059
N2240 X278.461 Y240.854
N2250 X278 Y240.658
N2260 X277.536 Y240.471
N2270 X277.068 Y240.295
N2280 X276.596 Y240.128
N2290 X276.121 Y239.97
N2300 X275.642 Y239.823
N2310 X275.161 Y239.685
N2320 X274.677 Y239.558
N2330 X274.19 Y239.44
N2340 X273.701 Y239.333
N2350 X273.21 Y239.236
N2360 X272.718 Y239.149
N2370 X272.223 Y239.072
N2380 X271.727 Y239.005
N2390 X271.23 Y238.949
N2400 X270.731 Y238.903
N2410 X270.232 Y238.867
N2420 X269.732 Y238.841
N2430 X269.232 Y238.826
N2440 X268.731 Y238.821
N2450 X268.231 Y238.827
N2460 X267.73 Y238.843
N2470 X267.23 Y238.869
N2480 X266.731 Y238.906
N2490 X266.233 Y238.952
N2500 X265.736 Y239.01
N2510 X265.24 Y239.077
N2520 X264.745 Y239.155
N2530 X264.252 Y239.243
N2540 X263.762 Y239.341
N2550 X263.273 Y239.449
N2560 X262.787 Y239.567
N2570 X262.303 Y239.695
N2580 X261.822 Y239.833
N2590 X261.344 Y239.982
N2600 X260.869 Y240.14
N2610 X260.397 Y240.307
N2620 X259.929 Y240.485
N2630 X259.465 Y240.672
N2640 X259.004 Y240.869
N2650 X258.548 Y241.075
N2660 X258.097 Y241.29
N2670 X257.649 Y241.515
N2680 X257.207 Y241.749
N2690 X256.769 Y241.992
N2700 X256.337 Y242.244
N2710 X255.91 Y242.505
N2720 X255.488 Y242.775
N2730 X255.072 Y243.053
N2740 X254.662 Y243.34
N2750 X254.258 Y243.636
N2760 X253.86 Y243.939
N2770 X253.468 Y244.251
N2780 X253.083 Y244.571
N2790 X252.705 Y244.899
N2800 X252.334 Y245.234
N2810 X251.969 Y245.577
N2820 X251.612 Y245.928
N2830 X251.262 Y246.286
N2840 X250.919 Y246.651
N2850 X250.584 Y247.023
N2860 X250.257 Y247.401
N2870 X249.938 Y247.787
N2880 X249.627 Y248.179
N2890 X249.324 Y248.577
N2900 X249.029 Y248.982
N2910 X248.743 Y249.392
N2920 X248.465 Y249.809
N2930 X248.196 Y250.231
N2940 X247.936 Y250.658
N2950 X247.684 Y251.091
N2960 X247.442 Y251.529
N2970 X247.208 Y251.972
N2980 X246.984 Y252.42
N2990 X246.769 Y252.872
N3000 X246.564 Y253.328
N3010 X246.368 Y253.789
N3020 X246.182 Y254.253
N3030 X246.005 Y254.721
N3040 X245.838 Y255.193
N3050 X245.681 Y255.669
N3060 X245.533 Y256.147
N3070 X245.396 Y256.628
N3080 X245.268 Y257.112
N3090 X245.151 Y257.599
N3100 X245.043 Y258.088
N3110 X244.946 Y258.579
N3120 X244.859 Y259.071
N3130 X244.782 Y259.566
N3140 X244.715 Y260.062
N3150 X244.659 Y260.56
N3160 X244.613 Y261.058
N3170 X244.577 Y261.557
N3180 X244.552 Y262.057
N3190 X244.536 Y262.557
N3200 X244.532 Y263.058
N3210 X244.537 Y263.558
N3220 X244.553 Y264.059
N3230 X244.579 Y264.559
N3240 X244.616 Y265.058
N3250 X244.663 Y265.556
N3260 X244.72 Y266.053
N3270 X244.787 Y266.549
N3280 X244.865 Y267.044
N3290 X244.953 Y267.537
N3300 X245.051 Y268.027
N3310 X245.159 Y268.516
N3320 X245.277 Y269.003
N3330 X245.405 Y269.486
N3340 X245.544 Y269.967
N3350 X245.692 Y270.446
N3360 X245.85 Y270.921
N3370 X246.018 Y271.392
N3380 X246.195 Y271.86
N3390 X246.382 Y272.324
N3400 X246.579 Y272.785
N3410 X246.785 Y273.241
N3420 X247 Y273.693
N3430 X247.225 Y274.14
N3440 X247.459 Y274.582
N3450 X247.702 Y275.02
N3460 X247.955 Y275.452
N3470 X248.215 Y275.879
N3480 X248.485 Y276.301
N3490 X248.764 Y276.717
N3500 X249.051 Y277.127
N3510 X249.346 Y277.531
N3520 X249.65 Y277.929
N3530 X249.961 Y278.321
N3540 X250.281 Y278.706
N3550 X250.609 Y279.084
N3560 X250.944 Y279.455
N3570 X251.287 Y279.82
N3580 X251.638 Y280.177
N3590 X251.996 Y280.527
N3600 X252.361 Y280.87
N3610 X252.733 Y281.205
N3620 X253.112 Y281.532
N3630 X253.497 Y281.851
N3640 X253.889 Y282.162
N3650 X254.288 Y282.465
N3660 X254.692 Y282.76
N3670 X255.103 Y283.046
N3680 X255.519 Y283.324
N3690 X255.941 Y283.593
N3700 X256.369 Y283.854
N3710 X256.802 Y284.105
N3720 X257.239 Y284.347
N3730 X257.682 Y284.581
N3740 X258.13 Y284.805
N3750 X258.582 Y285.02
N3760 X259.038 Y285.225
N3770 X259.499 Y285.421
N3780 X259.963 Y285.607
N3790 X260.432 Y285.784
N3800 X260.904 Y285.951
N3810 X261.379 Y286.109
N3820 X261.857 Y286.256
N3830 X262.338 Y286.393
N3840 X262.822 Y286.521
N3850 X263.309 Y286.638
N3860 X263.798 Y286.746
N3870 X264.289 Y286.843
N3880 X264.782 Y286.93
N3890 X265.276 Y287.007
N3900 X265.772 Y287.074
N3910 X266.27 Y287.13
N3920 X266.768 Y287.176
N3930 X267.267 Y287.212
N3940 X267.767 Y287.238
N3950 X268.268 Y287.253
N3960 X268.768 Y287.257
N3970 X269.269 Y287.252
N3980 X269.769 Y287.236
N3990 X270.269 Y287.21
N4000 X270.768 Y287.173
N4010 X271.266 Y287.126
N4020 X271.764 Y287.069
N4030 X272.26 Y287.002
N4040 X272.754 Y286.924
N4050 X273.247 Y286.836
N4060 X273.738 Y286.738
N4070 X274.226 Y286.63
N4080 X274.713 Y286.512
N4090 X275.197 Y286.384
N4100 X275.678 Y286.245
N4110 X276.156 Y286.097
N4120 X276.631 Y285.939
N4130 X277.102 Y285.771
N4140 X277.57 Y285.594
N4150 X278.035 Y285.407
N4160 X278.495 Y285.21
N4170 X278.951 Y285.004
N4180 X279.403 Y284.789
N4190 X279.85 Y284.564
N4200 X280.292 Y284.33
N4210 X280.73 Y284.087
N4220 X281.162 Y283.835
N4230 X281.59 Y283.574
N4240 X282.011 Y283.304
N4250 X282.427 Y283.025
N4260 X282.837 Y282.738
N4270 X283.241 Y282.443
N4280 X283.639 Y282.139
N4290 X284.031 Y281.828
N4300 X284.416 Y281.508
N4310 X284.794 Y281.18
N4320 X285.166 Y280.845
N4330 X285.53 Y280.502
N4340 X285.888 Y280.151
N4350 X286.238 Y279.793
N4360 X286.58 Y279.428
N4370 X286.915 Y279.056
N4380 X287.242 Y278.677
N4390 X287.561 Y278.292
N4400 X287.873 Y277.9
N4410 X288.176 Y277.501
N4420 X288.47 Y277.097
N4430 X288.757 Y276.686
N4440 X289.034 Y276.27
N4450 X289.303 Y275.848
N4460 X289.564 Y275.42
N4470 X289.815 Y274.988
N4480 X290.058 Y274.55
N4490 X290.291 Y274.107
N4500 X290.515 Y273.659
N4510 X290.73 Y273.207
N4520 X290.935 Y272.751
N4530 X291.131 Y272.29
N4540 X291.318 Y271.826
N4550 X291.495 Y271.357
N4560 X291.662 Y270.885
N4570 X291.819 Y270.41
N4580 X291.966 Y269.932
N4590 X292.104 Y269.451
N4600 X292.231 Y268.967
N4610 X292.349 Y268.48
N4620 X292.456 Y267.991
N4630 X292.553 Y267.5
N4640 X292.64 Y267.007
N4650 X292.717 Y266.513
N4660 X292.784 Y266.017
N4670 X292.84 Y265.519
N4680 X292.887 Y265.021
N4690 X292.922 Y264.522
N4700 X292.948 Y264.022
N4710 X292.963 Y263.521
N4720 X292.968 Y263.021
N4730 X292.965 Y262.771
N4740 X292.961 Y262.411
N4750 X292.932 Y261.692
N4760 X292.881 Y260.974
N4770 X292.809 Y260.258
N4780 X292.716 Y259.545
N4790 X292.601 Y258.834
N4800 X292.466 Y258.128
N4810 X292.309 Y257.425
N4820 X292.132 Y256.728
N4830 X291.934 Y256.036
N4840 X291.716 Y255.35
N4850 X291.478 Y254.672
N4860 X291.219 Y254
N4870 X290.941 Y253.337
N4880 X290.643 Y252.682
N4890 X290.325 Y252.036
N4900 X289.989 Y251.4
N4910 X289.634 Y250.774
N4920 X289.26 Y250.159
N4930 X288.868 Y249.555
N4940 X288.459 Y248.964
N4950 X288.032 Y248.384
N4960 X287.588 Y247.818
N4970 X287.128 Y247.265
N4980 X286.651 Y246.726
N4990 X286.159 Y246.202
N5000 X285.651 Y245.692
N5010 X285.128 Y245.197
N5020 X284.591 Y244.719
N5030 X284.039 Y244.256
N5040 X283.475 Y243.81
N5050 X282.897 Y243.381
N5060 X282.602 Y243.176
N5070 X282.195 Y242.904
N5080 X282.602 Y243.176 F100
N5090 X282.858 Y243.355
N5100 X283.362 Y243.726
N5110 X283.856 Y244.11
N5120 X284.34 Y244.506
N5130 X284.814 Y244.915
N5140 X285.277 Y245.336
N5150 X285.729 Y245.769
N5160 X286.169 Y246.213
N5170 X286.383 Y246.441
N5180 X286.634 Y246.719
N5190 X299.981 Y258.188
N5200 Z-12.8
N5210 X300.008 Y258.039 F200
N5220 X300.026 Y257.897
N5230 X300.041 Y257.612
N5240 X300.036 Y257.327
N5250 X300.01 Y257.043
N5260 X299.988 Y256.902
N5270 X299.925 Y256.585
N5280 X299.788 Y255.954
N5290 X299.638 Y255.326
N5300 X299.475 Y254.701
N5310 X299.299 Y254.079
N5320 X299.111 Y253.461
N5330 X298.911 Y252.847
N5340 X298.698 Y252.237
N5350 X298.473 Y251.632
N5360 X298.235 Y251.031
N5370 X297.985 Y250.436
N5380 X297.724 Y249.845
N5390 X297.45 Y249.26
N5400 X297.164 Y248.681
N5410 X296.867 Y248.107
N5420 X296.559 Y247.54
N5430 X296.238 Y246.979
N5440 X295.907 Y246.424
N5450 X295.564 Y245.877
N5460 X295.211 Y245.336
N5470 X294.846 Y244.803
N5480 X294.471 Y244.278
N5490 X294.085 Y243.76
N5500 X293.688 Y243.25
N5510 X293.282 Y242.748
N5520 X292.865 Y242.254
N5530 X292.438 Y241.769
N5540 X292.002 Y241.293
N5550 X291.556 Y240.826
N5560 X291.101 Y240.368
N5570 X290.636 Y239.919
N5580 X290.162 Y239.48
N5590 X289.68 Y239.05
N5600 X289.189 Y238.63
N5610 X288.69 Y238.221
N5620 X288.182 Y237.821
N5630 X287.666 Y237.432
N5640 X287.143 Y237.054
N5650 X286.612 Y236.686
N5660 X286.074 Y236.329
N5670 X285.528 Y235.983
N5680 X284.976 Y235.648
N5690 X284.417 Y235.325
N5700 X283.851 Y235.012
N5710 X283.28 Y234.712
N5720 X282.702 Y234.423
N5730 X282.118 Y234.146
N5740 X281.529 Y233.88
N5750 X280.935 Y233.627
N5760 X280.336 Y233.386
N5770 X279.732 Y233.157
N5780 X279.124 Y232.94
N5790 X278.511 Y232.736
N5800 X277.894 Y232.544
N5810 X277.273 Y232.365
N5820 X276.649 Y232.199
N5830 X276.022 Y232.045
N5840 X275.392 Y231.903
N5850 X274.759 Y231.775
N5860 X274.123 Y231.66
N5870 X273.485 Y231.557
N5880 X272.846 Y231.468
N5890 X272.204 Y231.391
N5900 X271.562 Y231.327
N5910 X270.918 Y231.277
N5920 X270.273 Y231.239
N5930 X269.627 Y231.215
N5940 X268.982 Y231.204
N5950 X268.336 Y231.206
N5960 X267.69 Y231.221
N5970 X267.045 Y231.249
N5980 X266.4 Y231.29
N5990 X265.756 Y231.344
N6000 X265.114 Y231.411
N6010 X264.473 Y231.492
N6020 X263.834 Y231.585
N6030 X263.197 Y231.691
N6040 X262.562 Y231.81
N6050 X261.929 Y231.942
N6060 X261.3 Y232.087
N6070 X260.674 Y232.244
N6080 X260.05 Y232.415
N6090 X259.431 Y232.597
N6100 X258.815 Y232.793
N6110 X258.204 Y233
N6120 X257.596 Y233.221
N6130 X256.994 Y233.453
N6140 X256.396 Y233.698
N6150 X255.803 Y233.954
N6160 X255.216 Y234.223
N6170 X254.634 Y234.503
N6180 X254.058 Y234.796
N6190 X253.488 Y235.1
N6200 X252.924 Y235.415
N6210 X252.367 Y235.742
N6220 X251.817 Y236.08
N6230 X251.273 Y236.429
N6240 X250.737 Y236.789
N6250 X250.208 Y237.16
N6260 X249.687 Y237.541
N6270 X249.173 Y237.933
N6280 X248.668 Y238.335
N6290 X248.171 Y238.748
N6300 X247.682 Y239.17
N6310 X247.203 Y239.603
N6320 X246.731 Y240.045
N6330 X246.269 Y240.496
N6340 X245.817 Y240.957
N6350 X245.373 Y241.427
N6360 X244.94 Y241.905
N6370 X244.516 Y242.393
N6380 X244.102 Y242.889
N6390 X243.698 Y243.393
N6400 X243.305 Y243.905
N6410 X242.922 Y244.425
N6420 X242.55 Y244.953
N6430 X242.188 Y245.488
N6440 X241.837 Y246.031
N6450 X241.498 Y246.58
N6460 X241.17 Y247.137
N6470 X240.853 Y247.699
N6480 X240.547 Y248.269
N6490 X240.253 Y248.844
N6500 X239.971 Y249.425
N6510 X239.701 Y250.012
N6520 X239.443 Y250.604
N6530 X239.196 Y251.201
N6540 X238.962 Y251.803
N6550 X238.851 Y252.106
N6560 X238.814 Y252.208
N6570 X238.75 Y252.415
N6580 X238.698 Y252.626
N6590 X238.657 Y252.839
N6600 X238.627 Y253.054
N6610 X238.61 Y253.27
N6620 X238.604 Y253.487
N6630 X238.609 Y253.704
N6640 X238.618 Y253.812
N6650 X238.648 Y254.05
N6660 X236.651 Y245.056 F100
N6670 Z-14.4
N6680 X236.618 Y244.787 F200
N6690 X236.606 Y244.623
N6700 X236.61 Y244.294
N6710 X236.64 Y243.967
N6720 X236.697 Y243.643
N6730 X236.78 Y243.325
N6740 X236.889 Y243.015
N6750 X237.023 Y242.715
N6760 X237.182 Y242.427
N6770 X237.272 Y242.29
N6780 X237.491 Y241.957
N6790 X237.943 Y241.302
N6800 X238.409 Y240.656
N6810 X238.889 Y240.021
N6820 X239.381 Y239.395
N6830 X239.887 Y238.78
N6840 X240.406 Y238.176
N6850 X240.937 Y237.583
N6860 X241.48 Y237.002
N6870 X242.036 Y236.432
N6880 X242.604 Y235.874
N6890 X243.183 Y235.328
N6900 X243.774 Y234.794
N6910 X244.376 Y234.273
N6920 X244.989 Y233.765
N6930 X245.612 Y233.27
N6940 X246.246 Y232.788
N6950 X246.89 Y232.319
N6960 X247.543 Y231.865
N6970 X248.206 Y231.424
N6980 X248.878 Y230.997
N6990 X249.559 Y230.585
N7000 X250.249 Y230.187
N7010 X250.946 Y229.804
N7020 X251.652 Y229.435
N7030 X252.366 Y229.082
N7040 X253.086 Y228.743
N7050 X253.814 Y228.42
N7060 X254.548 Y228.113
N7070 X255.289 Y227.821
N7080 X256.035 Y227.544
N7090 X256.788 Y227.284
N7100 X257.166 Y227.162
N7110 X257.262 Y227.133
N7120 X257.456 Y227.086
N7130 X257.653 Y227.049
N7140 X257.851 Y227.021
N7150 X258.05 Y227.004
N7160 X258.25 Y226.996
N7170 X258.449 Y226.999
N7180 X258.649 Y227.011
N7190 X258.847 Y227.034
N7200 X259.045 Y227.066
N7210 X259.24 Y227.108
N7220 X259.433 Y227.159
N7230 X259.623 Y227.221
N7240 X259.81 Y227.291
N7250 X259.993 Y227.371
N7260 X260.172 Y227.46
N7270 X260.347 Y227.558
N7280 X260.516 Y227.665
N7290 X260.679 Y227.779
N7300 X260.837 Y227.902
N7310 X260.989 Y228.032
N7320 X261.133 Y228.17
N7330 X261.271 Y228.315
N7340 X261.401 Y228.467
N7350 X261.524 Y228.625
N7360 X261.638 Y228.788
N7370 X261.744 Y228.958
N7380 X261.842 Y229.132
N7390 X261.931 Y229.311
N7400 X262.01 Y229.494
N7410 X262.081 Y229.681
N7420 X262.142 Y229.872
N7430 X262.168 Y229.968
N7440 X267.075
N7450 X272.064 F100
N7460 X277.479 F200
N7470 X277.519 Y229.883
N7480 X277.608 Y229.717
N7490 X277.704 Y229.556
N7500 X277.807 Y229.399
N7510 X277.918 Y229.247
N7520 X278.036 Y229.1
N7530 X278.161 Y228.96
N7540 X278.292 Y228.825
N7550 X278.429 Y228.696
N7560 X278.572 Y228.574
N7570 X278.721 Y228.459
N7580 X278.875 Y228.351
N7590 X279.034 Y228.251
N7600 X279.197 Y228.158
N7610 X279.365 Y228.073
N7620 X279.536 Y227.995
N7630 X279.711 Y227.926
N7640 X279.889 Y227.865
N7650 X280.07 Y227.813
N7660 X280.252 Y227.769
N7670 X280.437 Y227.734
N7680 X280.623 Y227.707
N7690 X280.81 Y227.69
N7700 X280.998 Y227.681
N7710 X281.186
N7720 X281.374 Y227.689
N7730 X281.561 Y227.707
N7740 X281.748 Y227.733
N7750 X281.932 Y227.768
N7760 X282.115 Y227.812
N7770 X282.296 Y227.864
N7780 X282.474 Y227.925
N7790 X282.561 Y227.959
N7800 X282.946 Y228.111
N7810 X283.709 Y228.431
N7820 X284.465 Y228.767
N7830 X285.213 Y229.12
N7840 X285.953 Y229.49
N7850 X286.685 Y229.875
N7860 X287.409 Y230.277
N7870 X288.123 Y230.694
N7880 X288.828 Y231.127
N7890 X289.523 Y231.575
N7900 X290.209 Y232.038
N7910 X290.884 Y232.517
N7920 X291.548 Y233.01
N7930 X292.201 Y233.517
N7940 X292.844 Y234.039
N7950 X293.474 Y234.574
N7960 X294.093 Y235.124
N7970 X294.699 Y235.686
N7980 X295.293 Y236.262
N7990 X295.874 Y236.851
N8000 X296.442 Y237.452
N8010 X296.997 Y238.066
N8020 X297.538 Y238.692
N8030 X298.065 Y239.33
N8040 X298.578 Y239.978
N8050 X299.077 Y240.638
N8060 X299.561 Y241.309
N8070 X300.031 Y241.991
N8080 X300.485 Y242.682
N8090 X300.924 Y243.383
N8100 X301.348 Y244.094
N8110 X301.755 Y244.814
N8120 X301.951 Y245.178
N8130 X302.018 Y245.309
N8140 X302.131 Y245.581
N8150 X302.225 Y245.861
N8160 X302.297 Y246.147
N8170 X302.348 Y246.437
N8180 X302.377 Y246.73
N8190 X302.385 Y247.025
N8200 X302.371 Y247.32
N8210 X302.353 Y247.466
N8220 X302.323 Y247.64
N8230 X303.835 Y240.832 F100
N8240 Z-16
N8250 X303.858 Y240.7 F200
N8260 X303.87 Y240.609
N8270 X303.885 Y240.427
N8280 X303.891 Y240.244
N8290 X303.889 Y240.061
N8300 X303.879 Y239.878
N8310 X303.861 Y239.696
N8320 X303.834 Y239.515
N8330 X303.799 Y239.335
N8340 X303.756 Y239.158
N8350 X303.704 Y238.982
N8360 X303.645 Y238.809
N8370 X303.578 Y238.638
N8380 X303.503 Y238.471
N8390 X303.42 Y238.308
N8400 X303.331 Y238.149
N8410 X303.234 Y237.993
N8420 X303.181 Y237.918
N8430 X302.952 Y237.603
N8440 X302.481 Y236.982
N8450 X301.998 Y236.369
N8460 X301.505 Y235.765
N8470 X301 Y235.17
N8480 X300.485 Y234.585
N8490 X299.959 Y234.009
N8500 X299.423 Y233.443
N8510 X298.876 Y232.887
N8520 X298.319 Y232.34
N8530 X297.753 Y231.805
N8540 X297.177 Y231.279
N8550 X296.591 Y230.764
N8560 X295.996 Y230.26
N8570 X295.391 Y229.767
N8580 X294.778 Y229.286
N8590 X294.156 Y228.815
N8600 X293.526 Y228.356
N8610 X292.887 Y227.908
N8620 X292.24 Y227.473
N8630 X291.586 Y227.049
N8640 X290.923 Y226.637
N8650 X290.254 Y226.238
N8660 X289.577 Y225.85
N8670 X288.893 Y225.476
N8680 X288.202 Y225.113
N8690 X287.505 Y224.764
N8700 X286.802 Y224.427
N8710 X286.092 Y224.103
N8720 X285.377 Y223.793
N8730 X284.656 Y223.495
N8740 X283.93 Y223.211
N8750 X283.564 Y223.075
N8760 X283.467 Y223.039
N8770 X283.268 Y222.977
N8780 X283.066 Y222.925
N8790 X282.862 Y222.884
N8800 X282.656 Y222.853
N8810 X282.449 Y222.834
N8820 X282.241 Y222.825
N8830 X282.033 Y222.826
N8840 X281.825 Y222.839
N8850 X281.618 Y222.863
N8860 X281.413 Y222.897
N8870 X281.21 Y222.941
N8880 X281.009 Y222.997
N8890 X280.811 Y223.062
N8900 X280.617 Y223.138
N8910 X280.428 Y223.224
N8920 X280.243 Y223.32
N8930 X280.063 Y223.425
N8940 X279.889 Y223.539
N8950 X279.721 Y223.662
N8960 X279.56 Y223.794
N8970 X279.406 Y223.934
N8980 X279.259 Y224.081
N8990 X279.12 Y224.236
N9000 X278.989 Y224.399
N9010 X278.868 Y224.567
N9020 X278.754 Y224.742
N9030 X278.651 Y224.923
N9040 X278.556 Y225.108
N9050 X278.472 Y225.299
N9060 X278.397 Y225.493
N9070 X278.333 Y225.691
N9080 X278.306 Y225.791
N9090 X277.379 Y229.968
N9100 X272.064
N9110 X267.075 F100
N9120 X262.169 F200
N9130 X261.135 Y225.309
N9140 X261.113 Y225.211
N9150 X261.06 Y225.017
N9160 X260.997 Y224.826
N9170 X260.924 Y224.639
N9180 X260.842 Y224.455
N9190 X260.751 Y224.276
N9200 X260.652 Y224.101
N9210 X260.543 Y223.932
N9220 X260.427 Y223.769
N9230 X260.302 Y223.611
N9240 X260.169 Y223.46
N9250 X260.029 Y223.316
N9260 X259.882 Y223.179
N9270 X259.729 Y223.049
N9280 X259.569 Y222.928
N9290 X259.403 Y222.814
N9300 X259.231 Y222.709
N9310 X259.055 Y222.613
N9320 X258.874 Y222.526
N9330 X258.689 Y222.448
N9340 X258.5 Y222.379
N9350 X258.308 Y222.32
N9360 X258.113 Y222.271
N9370 X257.916 Y222.231
N9380 X257.718 Y222.201
N9390 X257.518 Y222.182
N9400 X257.317 Y222.172
N9410 X257.116
N9420 X256.915 Y222.183
N9430 X256.715 Y222.203
N9440 X256.517 Y222.234
N9450 X256.32 Y222.274
N9460 X256.223 Y222.3
N9470 X255.858 Y222.412
N9480 X255.133 Y222.649
N9490 X254.413 Y222.899
N9500 X253.697 Y223.162
N9510 X252.986 Y223.438
N9520 X252.28 Y223.726
N9530 X251.579 Y224.027
N9540 X250.883 Y224.34
N9550 X250.194 Y224.666
N9560 X249.51 Y225.004
N9570 X248.833 Y225.355
N9580 X248.162 Y225.717
N9590 X247.497 Y226.092
N9600 X246.839 Y226.478
N9610 X246.189 Y226.876
N9620 X245.545 Y227.285
N9630 X244.909 Y227.706
N9640 X244.281 Y228.138
N9650 X243.66 Y228.582
N9660 X243.048 Y229.036
N9670 X242.443 Y229.502
N9680 X241.848 Y229.978
N9690 X241.26 Y230.464
N9700 X240.682 Y230.961
N9710 X240.112 Y231.469
N9720 X239.552 Y231.986
N9730 X239.001 Y232.514
N9740 X238.46 Y233.051
N9750 X237.928 Y233.598
N9760 X237.406 Y234.154
N9770 X236.894 Y234.72
N9780 X236.393 Y235.294
N9790 X236.147 Y235.586
N9800 X236.084 Y235.66
N9810 X235.966 Y235.815
N9820 X235.856 Y235.975
N9830 X235.753 Y236.14
N9840 X235.659 Y236.31
N9850 X235.573 Y236.484
N9860 X235.496 Y236.663
N9870 X235.427 Y236.845
N9880 X235.367 Y237.03
N9890 X235.316 Y237.217
N9900 X235.275 Y237.407
N9910 X235.243 Y237.599
N9920 X235.22 Y237.792
N9930 X235.206 Y237.986
N9940 X235.202 Y238.181
N9950 X235.208 Y238.375
N9960 X235.215 Y238.472
N9970 X235.25 Y238.749
N9980 X234.105 Y233.589 F100
N9990 Z-17.6
N10 X234.072 Y233.316 F200
N20 X234.064 Y233.21
N30 X234.06 Y232.998
N40 X234.068 Y232.786
N50 X234.086 Y232.575
N60 X234.116 Y232.365
N70 X234.156 Y232.157
N80 X234.208 Y231.952
N90 X234.27 Y231.749
N100 X234.344 Y231.55
N110 X234.427 Y231.355
N120 X234.521 Y231.165
N130 X234.625 Y230.98
N140 X234.738 Y230.801
N150 X234.861 Y230.628
N160 X234.992 Y230.462
N170 X235.133 Y230.303
N180 X235.207 Y230.227
N190 X235.466 Y229.962
N200 X235.993 Y229.44
N210 X236.528 Y228.926
N220 X237.071 Y228.421
N230 X237.622 Y227.925
N240 X238.181 Y227.438
N250 X238.747 Y226.959
N260 X239.321 Y226.489
N270 X239.903 Y226.029
N280 X240.491 Y225.578
N290 X241.087 Y225.136
N300 X241.689 Y224.703
N310 X242.298 Y224.28
N320 X242.914 Y223.867
N330 X243.536 Y223.464
N340 X244.165 Y223.07
N350 X244.8 Y222.687
N360 X245.44 Y222.313
N370 X246.087 Y221.95
N380 X246.739 Y221.597
N390 X247.397 Y221.254
N400 X248.06 Y220.922
N410 X248.728 Y220.6
N420 X249.401 Y220.289
N430 X250.079 Y219.989
N440 X250.762 Y219.699
N450 X251.449 Y219.42
N460 X252.141 Y219.152
N470 X252.836 Y218.895
N480 X253.536 Y218.649
N490 X254.239 Y218.414
N500 X254.946 Y218.191
N510 X255.301 Y218.084
N520 X255.393 Y218.061
N530 X255.577 Y218.023
N540 X255.762 Y217.994
N550 X255.949 Y217.974
N560 X256.137 Y217.962
N570 X256.325 Y217.959
N580 X256.513 Y217.965
N590 X256.7 Y217.98
N600 X256.886 Y218.003
N610 X257.072 Y218.036
N620 X257.255 Y218.077
N630 X257.436 Y218.126
N640 X257.615 Y218.184
N650 X257.791 Y218.25
N660 X257.963 Y218.325
N670 X258.132 Y218.407
N680 X258.297 Y218.498
N690 X258.458 Y218.596
N700 X258.613 Y218.701
N710 X258.764 Y218.814
N720 X258.909 Y218.933
N730 X259.048 Y219.059
N740 X259.181 Y219.192
N750 X259.308 Y219.33
N760 X259.428 Y219.475
N770 X259.542 Y219.625
N780 X259.648 Y219.78
N790 X259.747 Y219.94
N800 X259.838 Y220.104
N810 X259.921 Y220.273
N820 X259.996 Y220.445
N830 X260.064 Y220.62
N840 X260.093 Y220.71
N850 X260.171 Y220.993
N860 X260.199 Y221.096 F100
N870 X261.037 Y224.868
N880 X262.169 Y229.968 F200
N890 X267.075
N900 X272.064 F100
N910 X277.379 F200
N920 X278.455 Y225.119
N930 X279.25 Y221.538 F100
N940 X279.276 Y221.461
N950 X279.379 Y221.147 F200
N960 X279.414 Y221.057
N970 X279.492 Y220.881
N980 X279.579 Y220.708
N990 X279.674 Y220.54
N1000 X279.777 Y220.377
N1010 X279.888 Y220.219
N1020 X280.006 Y220.066
N1030 X280.131 Y219.919
N1040 X280.264 Y219.779
N1050 X280.402 Y219.645
N1060 X280.548 Y219.518
N1070 X280.699 Y219.398
N1080 X280.856 Y219.285
N1090 X281.018 Y219.18
N1100 X281.185 Y219.083
N1110 X281.356 Y218.995
N1120 X281.531 Y218.914
N1130 X281.711 Y218.842
N1140 X281.893 Y218.779
N1150 X282.078 Y218.725
N1160 X282.266 Y218.679
N1170 X282.455 Y218.643
N1180 X282.647 Y218.616
N1190 X282.839 Y218.598
N1200 X283.032 Y218.59
N1210 X283.225 Y218.591
N1220 X283.417 Y218.601
N1230 X283.609 Y218.62
N1240 X283.8 Y218.649
N1250 X283.99 Y218.687
N1260 X284.177 Y218.734
N1270 X284.362 Y218.789
N1280 X284.453 Y218.822
N1290 X284.808 Y218.948
N1300 X285.514 Y219.211
N1310 X286.216 Y219.486
N1320 X286.914 Y219.773
N1330 X287.607 Y220.07
N1340 X288.295 Y220.379
N1350 X288.978 Y220.698
N1360 X289.656 Y221.029
N1370 X290.328 Y221.37
N1380 X290.995 Y221.722
N1390 X291.656 Y222.085
N1400 X292.311 Y222.458
N1410 X292.96 Y222.842
N1420 X293.603 Y223.236
N1430 X294.239 Y223.64
N1440 X294.869 Y224.055
N1450 X295.492 Y224.48
N1460 X296.108 Y224.914
N1470 X296.717 Y225.359
N1480 X297.319 Y225.813
N1490 X297.913 Y226.277
N1500 X298.5 Y226.75
N1510 X299.079 Y227.233
N1520 X299.651 Y227.725
N1530 X300.214 Y228.226
N1540 X300.77 Y228.736
N1550 X301.317 Y229.255
N1560 X301.855 Y229.783
N1570 X302.385 Y230.319
N1580 X302.907 Y230.864
N1590 X303.419 Y231.417
N1600 X303.923 Y231.978
N1610 X304.17 Y232.263
N1620 X304.234 Y232.341
N1630 X304.355 Y232.503
N1640 X304.467 Y232.671
N1650 X304.571 Y232.844
N1660 X304.666 Y233.023
N1670 X304.751 Y233.206
N1680 X304.828 Y233.393
N1690 X304.895 Y233.584
N1700 X304.952 Y233.778
N1710 X304.999 Y233.974
N1720 X305.036 Y234.173
N1730 X305.063 Y234.373
N1740 X305.08 Y234.575
N1750 X305.087 Y234.776
N1760 X305.083 Y234.979
N1770 X305.07 Y235.18
N1780 X305.058 Y235.281
N1790 X305.025 Y235.472
N1800 X306.041 Y230.894 F100
N1810 Z-19.2
N1820 X306.069 Y230.735 F200
N1830 X306.082 Y230.629
N1840 X306.098 Y230.417
N1850 X306.101 Y230.204
N1860 X306.094 Y229.992
N1870 X306.076 Y229.78
N1880 X306.046 Y229.569
N1890 X306.005 Y229.361
N1900 X305.953 Y229.154
N1910 X305.89 Y228.951
N1920 X305.817 Y228.752
N1930 X305.733 Y228.556
N1940 X305.639 Y228.365
N1950 X305.534 Y228.18
N1960 X305.421 Y228
N1970 X305.297 Y227.827
N1980 X305.165 Y227.66
N1990 X305.095 Y227.581
N2000 X304.836 Y227.316
N2010 X304.312 Y226.793
N2020 X303.779 Y226.278
N2030 X303.239 Y225.772
N2040 X302.692 Y225.273
N2050 X302.138 Y224.782
N2060 X301.577 Y224.299
N2070 X301.008 Y223.824
N2080 X300.433 Y223.358
N2090 X299.851 Y222.9
N2100 X299.262 Y222.451
N2110 X298.667 Y222.01
N2120 X298.066 Y221.578
N2130 X297.458 Y221.155
N2140 X296.844 Y220.741
N2150 X296.224 Y220.336
N2160 X295.599 Y219.94
N2170 X294.967 Y219.553
N2180 X294.33 Y219.175
N2190 X293.688 Y218.807
N2200 X293.04 Y218.448
N2210 X292.387 Y218.098
N2220 X291.729 Y217.758
N2230 X291.067 Y217.428
N2240 X290.399 Y217.108
N2250 X289.727 Y216.797
N2260 X289.05 Y216.496
N2270 X288.369 Y216.205
N2280 X287.684 Y215.924
N2290 X286.995 Y215.653
N2300 X286.302 Y215.392
N2310 X285.606 Y215.141
N2320 X285.255 Y215.021
N2330 X285.164 Y214.989
N2340 X284.978 Y214.935
N2350 X284.789 Y214.89
N2360 X284.598 Y214.854
N2370 X284.406 Y214.827
N2380 X284.213 Y214.81
N2390 X284.02 Y214.802
N2400 X283.826 Y214.804
N2410 X283.632 Y214.815
N2420 X283.439 Y214.835
N2430 X283.248 Y214.864
N2440 X283.058 Y214.903
N2450 X282.87 Y214.951
N2460 X282.685 Y215.008
N2470 X282.502 Y215.074
N2480 X282.323 Y215.149
N2490 X282.148 Y215.232
N2500 X281.977 Y215.324
N2510 X281.811 Y215.423
N2520 X281.65 Y215.531
N2530 X281.494 Y215.646
N2540 X281.344 Y215.769
N2550 X281.2 Y215.899
N2560 X281.063 Y216.036
N2570 X280.932 Y216.179
N2580 X280.809 Y216.329
N2590 X280.692 Y216.484
N2600 X280.584 Y216.644
N2610 X280.483 Y216.81
N2620 X280.391 Y216.98
N2630 X280.307 Y217.155
N2640 X280.231 Y217.334
N2650 X280.198 Y217.425
N2660 X280.1 Y217.735
N2670 X280.887 Y214.221 F100
N2680 Z-20.8
N2690 X280.973 Y213.949 F200
N2700 X281.007 Y213.859
N2710 X281.083 Y213.683
N2720 X281.168 Y213.511
N2730 X281.261 Y213.343
N2740 X281.361 Y213.179
N2750 X281.47 Y213.021
N2760 X281.585 Y212.868
N2770 X281.708 Y212.721
N2780 X281.838 Y212.579
N2790 X281.975 Y212.445
N2800 X282.118 Y212.317
N2810 X282.266 Y212.195
N2820 X282.421 Y212.082
N2830 X282.581 Y211.975
N2840 X282.745 Y211.877
N2850 X282.914 Y211.786
N2860 X283.088 Y211.704
N2870 X283.265 Y211.63
N2880 X283.445 Y211.564
N2890 X283.628 Y211.508
N2900 X283.814 Y211.46
N2910 X284.002 Y211.421
N2920 X284.192 Y211.391
N2930 X284.383 Y211.371
N2940 X284.574 Y211.359
N2950 X284.766 Y211.357
N2960 X284.958 Y211.364
N2970 X285.149 Y211.38
N2980 X285.339 Y211.405
N2990 X285.528 Y211.439
N3000 X285.715 Y211.483
N3010 X285.899 Y211.535
N3020 X285.99 Y211.565
N3030 X286.336 Y211.681
N3040 X287.024 Y211.922
N3050 X287.708 Y212.171
N3060 X288.39 Y212.43
N3070 X289.067 Y212.698
N3080 X289.741 Y212.976
N3090 X290.411 Y213.262
N3100 X291.077 Y213.557
N3110 X291.74 Y213.861
N3120 X292.398 Y214.174
N3130 X293.052 Y214.496
N3140 X293.701 Y214.826
N3150 X294.346 Y215.166
N3160 X294.986 Y215.514
N3170 X295.622 Y215.87
N3180 X296.253 Y216.235
N3190 X296.878 Y216.608
N3200 X297.499 Y216.99
N3210 X298.115 Y217.38
N3220 X298.725 Y217.778
N3230 X299.33 Y218.185
N3240 X299.929 Y218.599
N3250 X300.523 Y219.022
N3260 X301.111 Y219.453
N3270 X301.693 Y219.891
N3280 X302.269 Y220.337
N3290 X302.839 Y220.791
N3300 X303.403 Y221.252
N3310 X303.961 Y221.721
N3320 X304.512 Y222.198
N3330 X305.057 Y222.682
N3340 X305.596 Y223.173
N3350 X305.862 Y223.422
N3360 X305.942 Y223.504
N3370 X306.092 Y223.677
N3380 X306.231 Y223.858
N3390 X306.361 Y224.048
N3400 X306.479 Y224.244
N3410 X306.586 Y224.446
N3420 X306.681 Y224.655
N3430 X306.764 Y224.868
N3440 X306.835 Y225.086
N3450 X306.893 Y225.308
N3460 X306.938 Y225.532
N3470 X306.971 Y225.759
N3480 X306.99 Y225.987
N3490 X306.997 Y226.216
N3500 X306.99 Y226.445
N3510 X306.97 Y226.673
N3520 X306.954 Y226.787
N3530 X307.735 Y223.269 F100
N3540 Z-22.4
N3550 X307.77 Y223.058 F200
N3560 X307.784 Y222.943
N3570 X307.797 Y222.712
N3580 X307.798 Y222.481
N3590 X307.784 Y222.25
N3600 X307.758 Y222.02
N3610 X307.718 Y221.792
N3620 X307.665 Y221.567
N3630 X307.6 Y221.345
N3640 X307.521 Y221.127
N3650 X307.43 Y220.914
N3660 X307.327 Y220.707
N3670 X307.213 Y220.506
N3680 X307.087 Y220.312
N3690 X306.949 Y220.126
N3700 X306.802 Y219.947
N3710 X306.644 Y219.778
N3720 X306.56 Y219.698
N3730 X306.289 Y219.462
N3740 X305.741 Y218.995
N3750 X305.187 Y218.536
N3760 X304.627 Y218.083
N3770 X304.062 Y217.637
N3780 X303.491 Y217.199
N3790 X302.914 Y216.768
N3800 X302.332 Y216.344
N3810 X301.745 Y215.927
N3820 X301.153 Y215.518
N3830 X300.556 Y215.116
N3840 X299.954 Y214.722
N3850 X299.347 Y214.335
N3860 X298.735 Y213.956
N3870 X298.118 Y213.584
N3880 X297.497 Y213.221
N3890 X296.871 Y212.865
N3900 X296.241 Y212.517
N3910 X295.606 Y212.177
N3920 X294.968 Y211.845
N3930 X294.325 Y211.52
N3940 X293.678 Y211.204
N3950 X293.027 Y210.897
N3960 X292.373 Y210.597
N3970 X291.715 Y210.305
N3980 X291.053 Y210.022
N3990 X290.388 Y209.747
N4000 X289.719 Y209.481
N4010 X289.047 Y209.222
N4020 X288.372 Y208.973
N4030 X287.693 Y208.731
N4040 X287.012 Y208.499
N4050 X286.67 Y208.387
N4060 X286.58 Y208.357
N4070 X286.396 Y208.306
N4080 X286.209 Y208.264
N4090 X286.022 Y208.231
N4100 X285.832 Y208.207
N4110 X285.642 Y208.192
N4120 X285.451 Y208.186
N4130 X285.26 Y208.189
N4140 X285.07 Y208.201
N4150 X284.88 Y208.223
N4160 X284.692 Y208.253
N4170 X284.505 Y208.292
N4180 X284.32 Y208.34
N4190 X284.138 Y208.397
N4200 X283.959 Y208.463
N4210 X283.783 Y208.537
N4220 X283.611 Y208.619
N4230 X283.443 Y208.709
N4240 X283.279 Y208.808
N4250 X283.12 Y208.914
N4260 X282.967 Y209.027
N4270 X282.819 Y209.148
N4280 X282.677 Y209.275
N4290 X282.541 Y209.409
N4300 X282.412 Y209.55
N4310 X282.29 Y209.696
N4320 X282.174 Y209.848
N4330 X282.067 Y210.006
N4340 X281.966 Y210.168
N4350 X281.874 Y210.335
N4360 X281.79 Y210.506
N4370 X281.714 Y210.682
N4380 X281.68 Y210.771
N4390 X281.593 Y211.039
N4400 X282.25 Y208.086 F100
N4410 Z-24
N4420 X282.336 Y207.82 F200
N4430 X282.37 Y207.731
N4440 X282.446 Y207.557
N4450 X282.53 Y207.387
N4460 X282.622 Y207.221
N4470 X282.722 Y207.059
N4480 X282.829 Y206.902
N4490 X282.944 Y206.751
N4500 X283.066 Y206.605
N4510 X283.195 Y206.466
N4520 X283.33 Y206.332
N4530 X283.471 Y206.205
N4540 X283.618 Y206.085
N4550 X283.771 Y205.972
N4560 X283.929 Y205.866
N4570 X284.092 Y205.768
N4580 X284.259 Y205.678
N4590 X284.43 Y205.596
N4600 X284.605 Y205.522
N4610 X284.783 Y205.456
N4620 X284.964 Y205.399
N4630 X285.148 Y205.351
N4640 X285.334 Y205.311
N4650 X285.521 Y205.281
N4660 X285.71 Y205.259
N4670 X285.9 Y205.246
N4680 X286.09 Y205.242
N4690 X286.279 Y205.247
N4700 X286.469 Y205.262
N4710 X286.657 Y205.285
N4720 X286.845 Y205.317
N4730 X287.03 Y205.358
N4740 X287.214 Y205.407
N4750 X287.304 Y205.436
N4760 X287.643 Y205.546
N4770 X288.319 Y205.772
N4780 X288.993 Y206.007
N4790 X289.663 Y206.249
N4800 X290.331 Y206.499
N4810 X290.995 Y206.757
N4820 X291.657 Y207.023
N4830 X292.315 Y207.297
N4840 X292.97 Y207.578
N4850 X293.622 Y207.867
N4860 X294.27 Y208.164
N4870 X294.915 Y208.469
N4880 X295.556 Y208.781
N4890 X296.193 Y209.1
N4900 X296.827 Y209.427
N4910 X297.456 Y209.762
N4920 X298.082 Y210.103
N4930 X298.704 Y210.453
N4940 X299.321 Y210.809
N4950 X299.934 Y211.173
N4960 X300.543 Y211.544
N4970 X301.147 Y211.922
N4980 X301.747 Y212.307
N4990 X302.343 Y212.7
N5000 X302.933 Y213.099
N5010 X303.519 Y213.505
N5020 X304.1 Y213.918
N5030 X304.677 Y214.338
N5040 X305.248 Y214.765
N5050 X305.814 Y215.198
N5060 X306.375 Y215.638
N5070 X306.931 Y216.085
N5080 X307.206 Y216.311
N5090 X307.289 Y216.386
N5100 X307.448 Y216.546
N5110 X307.597 Y216.714
N5120 X307.736 Y216.89
N5130 X307.866 Y217.073
N5140 X307.985 Y217.264
N5150 X308.093 Y217.461
N5160 X308.19 Y217.664
N5170 X308.275 Y217.871
N5180 X308.349 Y218.084
N5190 X308.41 Y218.3
N5200 X308.46 Y218.519
N5210 X308.497 Y218.74
N5220 X308.522 Y218.964
N5230 X308.534 Y219.188
N5240 X308.533 Y219.412
N5250 X308.527 Y219.525
N5260 X308.489 Y219.87
N5270 X309.148 Y216.905 F100
N5280 Z-25.6
N5290 X309.18 Y216.719 F200
N5300 X309.194 Y216.597
N5310 X309.209 Y216.351
N5320 X309.208 Y216.105
N5330 X309.192 Y215.859
N5340 X309.161 Y215.615
N5350 X309.116 Y215.373
N5360 X309.055 Y215.134
N5370 X308.98 Y214.899
N5380 X308.891 Y214.67
N5390 X308.787 Y214.446
N5400 X308.67 Y214.229
N5410 X308.541 Y214.02
N5420 X308.398 Y213.819
N5430 X308.243 Y213.628
N5440 X308.077 Y213.446
N5450 X307.9 Y213.274
N5460 X307.807 Y213.194
N5470 X307.529 Y212.976
N5480 X306.967 Y212.546
N5490 X306.401 Y212.122
N5500 X305.83 Y211.705
N5510 X305.254 Y211.294
N5520 X304.674 Y210.889
N5530 X304.089 Y210.491
N5540 X303.5 Y210.1
N5550 X302.906 Y209.715
N5560 X302.309 Y209.336
N5570 X301.707 Y208.965
N5580 X301.101 Y208.6
N5590 X300.491 Y208.242
N5600 X299.876 Y207.891
N5610 X299.259 Y207.547
N5620 X298.637 Y207.209
N5630 X298.011 Y206.879
N5640 X297.382 Y206.556
N5650 X296.749 Y206.239
N5660 X296.113 Y205.93
N5670 X295.474 Y205.628
N5680 X294.831 Y205.333
N5690 X294.184 Y205.046
N5700 X293.535 Y204.765
N5710 X292.882 Y204.492
N5720 X292.227 Y204.226
N5730 X291.568 Y203.968
N5740 X290.907 Y203.717
N5750 X290.243 Y203.473
N5760 X289.576 Y203.237
N5770 X288.907 Y203.008
N5780 X288.235 Y202.786
N5790 X287.898 Y202.68
N5800 X287.808 Y202.651
N5810 X287.625 Y202.602
N5820 X287.44 Y202.562
N5830 X287.254 Y202.531
N5840 X287.066 Y202.509
N5850 X286.877 Y202.495
N5860 X286.688 Y202.491
N5870 X286.499 Y202.495
N5880 X286.31 Y202.508
N5890 X286.122 Y202.531
N5900 X285.935 Y202.562
N5910 X285.75 Y202.602
N5920 X285.568 Y202.65
N5930 X285.387 Y202.707
N5940 X285.21 Y202.773
N5950 X285.036 Y202.847
N5960 X284.865 Y202.929
N5970 X284.699 Y203.019
N5980 X284.537 Y203.117
N5990 X284.38 Y203.222
N6000 X284.228 Y203.335
N6010 X284.081 Y203.454
N6020 X283.94 Y203.581
N6030 X283.806 Y203.714
N6040 X283.678 Y203.853
N6050 X283.556 Y203.998
N6060 X283.442 Y204.149
N6070 X283.335 Y204.304
N6080 X283.235 Y204.465
N6090 X283.143 Y204.631
N6100 X283.059 Y204.8
N6110 X282.983 Y204.973
N6120 X282.949 Y205.062
N6130 X282.863 Y205.326
N6140 X282.888 Y205.212 F100
N6150 Z-27.2
N6160 X282.966 Y204.968 F200
N6170 X283.013 Y204.842
N6180 X283.124 Y204.598
N6190 X283.251 Y204.361
N6200 X283.393 Y204.134
N6210 X283.551 Y203.916
N6220 X283.723 Y203.71
N6230 X283.908 Y203.515
N6240 X284.105 Y203.333
N6250 X284.315 Y203.165
N6260 X284.535 Y203.012
N6270 X284.765 Y202.873
N6280 X285.004 Y202.75
N6290 X285.25 Y202.644
N6300 X285.503 Y202.554
N6310 X285.762 Y202.481
N6320 X286.025 Y202.426
N6330 X286.158 Y202.408
N6340 X286.436 Y202.382
N6350 X286.546 Y202.372 F100
N6360 X293.999
N6370 X294.101 Y202.382
N6380 X294.367 Y202.407 F200
N6390 X294.505 Y202.427
N6400 X294.777 Y202.485
N6410 X295.044 Y202.562
N6420 X295.305 Y202.657
N6430 X295.432 Y202.714
N6440 X295.862 Y202.904
N6450 X296.716 Y203.296
N6460 X297.564 Y203.7
N6470 X298.406 Y204.116
N6480 X299.243 Y204.545
N6490 X300.073 Y204.985
N6500 X300.896 Y205.437
N6510 X301.713 Y205.9
N6520 X302.524 Y206.375
N6530 X303.327 Y206.862
N6540 X304.124 Y207.36
N6550 X304.913 Y207.87
N6560 X305.695 Y208.391
N6570 X306.47 Y208.923
N6580 X307.236 Y209.465
N6590 X307.995 Y210.019
N6600 X308.371 Y210.301
N6610 X308.468 Y210.381
N6620 X308.652 Y210.552
N6630 X308.825 Y210.734
N6640 X308.986 Y210.927
N6650 X309.135 Y211.129
N6660 X309.27 Y211.341
N6670 X309.393 Y211.56
N6680 X309.501 Y211.787
N6690 X309.595 Y212.02
N6700 X309.674 Y212.258
N6710 X309.738 Y212.501
N6720 X309.787 Y212.747
N6730 X309.82 Y212.996
N6740 X309.837 Y213.247
N6750 X309.839 Y213.498
N6760 X309.825 Y213.749
N6770 X309.811 Y213.873
N6780 X309.777 Y214.072
N6790 G0 Z10
N6800 X281.425 Y155.792
N6810 Z0
N6820 G1 Z-16 F100
N6830 X281.514 Y155.751 F200
N6840 X281.687 Y155.66
N6850 X281.855 Y155.562
N6860 X282.019 Y155.455
N6870 X282.177 Y155.34
N6880 X282.329 Y155.218
N6890 X282.475 Y155.089
N6900 X282.615 Y154.952
N6910 X282.748 Y154.809
N6920 X282.874 Y154.66
N6930 X282.992 Y154.505
N6940 X283.102 Y154.344
N6950 X283.205 Y154.178
N6960 X283.299 Y154.007
N6970 X283.385 Y153.831
N6980 X283.463 Y153.652
N6990 X283.497 Y153.561
N7000 X283.581 Y153.298
N7010 X283.616 Y153.189 F100
N7020 X284.031 Y151.318
N7030 X284.066 Y151.114
N7040 X284.099 Y150.919 F200
N7050 X284.117 Y150.769
N7060 X284.13 Y150.465
N7070 X284.119 Y150.162
N7080 X284.086 Y149.86
N7090 X284.03 Y149.562
N7100 X283.951 Y149.268
N7110 X283.851 Y148.982
N7120 X283.729 Y148.704
N7130 X283.586 Y148.436
N7140 X283.423 Y148.179
N7150 X283.242 Y147.936
N7160 X283.042 Y147.707
N7170 X282.826 Y147.494
N7180 X282.594 Y147.298
N7190 X282.348 Y147.12
N7200 X282.09 Y146.961
N7210 X281.82 Y146.822
N7220 X281.54 Y146.704
N7230 X281.252 Y146.607
N7240 X280.958 Y146.533
N7250 X280.659 Y146.481
N7260 X280.356 Y146.452
N7270 X280.053 Y146.446
N7280 X279.75 Y146.463
N7290 X279.449 Y146.503
N7300 X279.152 Y146.565
N7310 X278.86 Y146.65
N7320 X278.576 Y146.757
N7330 X278.3 Y146.885
N7340 X278.035 Y147.033
N7350 X277.783 Y147.201
N7360 X277.543 Y147.388
N7370 X277.431 Y147.49
N7380 X275.593 Y149.328
N7390 X275.494 Y149.426
N7400 X275.312 Y149.636
N7410 X275.145 Y149.857
N7420 X274.993 Y150.089
N7430 X274.858 Y150.332
N7440 X274.74 Y150.583
N7450 X274.64 Y150.841
N7460 X274.558 Y151.106
N7470 X274.494 Y151.376
N7480 X274.449 Y151.65
N7490 X274.424 Y151.926
N7500 X274.417 Y152.204
N7510 X274.43 Y152.481
N7520 X274.462 Y152.757
N7530 X274.513 Y153.029
N7540 X274.582 Y153.298
N7550 X274.671 Y153.561
N7560 X274.777 Y153.817
N7570 X274.9 Y154.066
N7580 X275.041 Y154.305
N7590 X275.198 Y154.534
N7600 X275.37 Y154.751
N7610 X275.557 Y154.956
N7620 X275.757 Y155.148
N7630 X275.971 Y155.325
N7640 X276.196 Y155.487
N7650 X276.432 Y155.633
N7660 X276.677 Y155.763
N7670 X276.931 Y155.875
N7680 X277.192 Y155.969
N7690 X277.459 Y156.045
N7700 X277.73 Y156.102
N7710 X277.868 Y156.121
N7720 X278.158 Y156.147
N7730 X278.27 Y156.157 F100
N7740 X279.917
N7750 X280.023 Y156.147
N7760 X280.306 Y156.121 F200
N7770 X280.451 Y156.101
N7780 X280.737 Y156.039
N7790 X281.018 Y155.956
N7800 X281.292 Y155.853
N7810 X281.425 Y155.792
N7820 X281.292 Y155.853 F100
N7830 X281.018 Y155.956
N7840 X280.737 Y156.039
N7850 X280.451 Y156.101
N7860 X280.306 Y156.121
N7870 X280.023 Y156.147
N7880 Z-17.6
N7890 X280.306 Y156.121 F200
N7900 X280.438 Y156.102
N7910 X280.701 Y156.047
N7920 X280.96 Y155.975
N7930 X281.213 Y155.885
N7940 X281.459 Y155.778
N7950 X281.698 Y155.655
N7960 X281.928 Y155.517
N7970 X282.148 Y155.363
N7980 X282.358 Y155.195
N7990 X282.555 Y155.014
N8000 X282.74 Y154.819
N8010 X282.912 Y154.613
N8020 X283.07 Y154.395
N8030 X283.212 Y154.168
N8040 X283.339 Y153.931
N8050 X283.45 Y153.687
N8060 X283.497 Y153.561
N8070 X283.581 Y153.298
N8080 Z-19.2 F100
N8090 X283.497 Y153.561 F200
N8100 X283.45 Y153.687
N8110 X283.339 Y153.931
N8120 X283.212 Y154.168
N8130 X283.07 Y154.395
N8140 X282.912 Y154.613
N8150 X282.74 Y154.819
N8160 X282.555 Y155.014
N8170 X282.358 Y155.195
N8180 X282.148 Y155.363
N8190 X281.928 Y155.517
N8200 X281.698 Y155.655
N8210 X281.459 Y155.778
N8220 X281.213 Y155.885
N8230 X280.96 Y155.975
N8240 X280.701 Y156.047
N8250 X280.438 Y156.102
N8260 X280.306 Y156.121
N8270 X280.023 Y156.147
N8280 X280.022 Z-20.8 F100
N8290 X280.306 Y156.121 F200
N8300 X280.438 Y156.102
N8310 X280.701 Y156.047
N8320 X280.96 Y155.975
N8330 X281.213 Y155.885
N8340 X281.459 Y155.778
N8350 X281.698 Y155.655
N8360 X281.928 Y155.517
N8370 X282.148 Y155.363
N8380 X282.358 Y155.195
N8390 X282.555 Y155.014
N8400 X282.74 Y154.819
N8410 X282.912 Y154.613
N8420 X283.07 Y154.395
N8430 X283.212 Y154.168
N8440 X283.339 Y153.931
N8450 X283.45 Y153.687
N8460 X283.497 Y153.561
N8470 X283.581 Y153.298
N8480 Z-22.4 F100
N8490 X283.497 Y153.561 F200
N8500 X283.45 Y153.687
N8510 X283.339 Y153.931
N8520 X283.212 Y154.168
N8530 X283.07 Y154.395
N8540 X282.912 Y154.613
N8550 X282.74 Y154.819
N8560 X282.555 Y155.014
N8570 X282.358 Y155.195
N8580 X282.148 Y155.363
N8590 X281.928 Y155.517
N8600 X281.698 Y155.655
N8610 X281.459 Y155.778
N8620 X281.213 Y155.885
N8630 X280.96 Y155.975
N8640 X280.701 Y156.047
N8650 X280.438 Y156.102
N8660 X280.306 Y156.121
N8670 X280.022 Y156.147
N8680 Z-24 F100
N8690 X280.306 Y156.121 F200
N8700 X280.438 Y156.102
N8710 X280.701 Y156.047
N8720 X280.96 Y155.975
N8730 X281.213 Y155.885
N8740 X281.459 Y155.778
N8750 X281.698 Y155.655
N8760 X281.928 Y155.517
N8770 X282.148 Y155.363
N8780 X282.358 Y155.195
N8790 X282.555 Y155.014
N8800 X282.74 Y154.819
N8810 X282.912 Y154.613
N8820 X283.07 Y154.395
N8830 X283.212 Y154.168
N8840 X283.339 Y153.931
N8850 X283.45 Y153.687
N8860 X283.497 Y153.561
N8870 X283.581 Y153.298
N8880 Z-25.6 F100
N8890 X283.497 Y153.561 F200
N8900 X283.45 Y153.687
N8910 X283.339 Y153.931
N8920 X283.212 Y154.168
N8930 X283.07 Y154.395
N8940 X282.912 Y154.613
N8950 X282.74 Y154.819
N8960 X282.555 Y155.014
N8970 X282.358 Y155.195
N8980 X282.148 Y155.363
N8990 X281.928 Y155.517
N9000 X281.698 Y155.655
N9010 X281.459 Y155.778
N9020 X281.213 Y155.885
N9030 X280.96 Y155.975
N9040 X280.701 Y156.047
N9050 X280.438 Y156.102
N9060 X280.306 Y156.121
N9070 X280.022 Y156.147
N9080 Z-27.2 F100
N9090 X280.306 Y156.121 F200
N9100 X280.438 Y156.102
N9110 X280.701 Y156.047
N9120 X280.96 Y155.975
N9130 X281.213 Y155.885
N9140 X281.459 Y155.778
N9150 X281.698 Y155.655
N9160 X281.928 Y155.517
N9170 X282.148 Y155.363
N9180 X282.358 Y155.195
N9190 X282.555 Y155.014
N9200 X282.74 Y154.819
N9210 X282.912 Y154.613
N9220 X283.07 Y154.395
N9230 X283.212 Y154.168
N9240 X283.339 Y153.931
N9250 X283.45 Y153.687
N9260 X283.497 Y153.561
N9270 X283.581 Y153.298
N9280 Z-28.8 F100
N9290 X283.497 Y153.561 F200
N9300 X283.45 Y153.687
N9310 X283.339 Y153.931
N9320 X283.212 Y154.168
N9330 X283.07 Y154.395
N9340 X282.912 Y154.613
N9350 X282.74 Y154.819
N9360 X282.555 Y155.014
N9370 X282.358 Y155.195
N9380 X282.148 Y155.363
N9390 X281.928 Y155.517
N9400 X281.698 Y155.655
N9410 X281.459 Y155.778
N9420 X281.213 Y155.885
N9430 X280.96 Y155.975
N9440 X280.701 Y156.047
N9450 X280.438 Y156.102
N9460 X280.306 Y156.121
N9470 X280.022 Y156.147
N9480 Z-30.4 F100
N9490 X280.306 Y156.121 F200
N9500 X280.438 Y156.102
N9510 X280.701 Y156.047
N9520 X280.96 Y155.975
N9530 X281.213 Y155.885
N9540 X281.459 Y155.778
N9550 X281.698 Y155.655
N9560 X281.928 Y155.517
N9570 X282.148 Y155.363
N9580 X282.358 Y155.195
N9590 X282.555 Y155.014
N9600 X282.74 Y154.819
N9610 X282.912 Y154.613
N9620 X283.07 Y154.395
N9630 X283.212 Y154.168
N9640 X283.339 Y153.931
N9650 X283.45 Y153.687
N9660 X283.497 Y153.561
N9670 X283.581 Y153.298
N9680 Z-32 F100
N9690 X283.497 Y153.561 F200
N9700 X283.45 Y153.687
N9710 X283.339 Y153.931
N9720 X283.212 Y154.168
N9730 X283.07 Y154.395
N9740 X282.912 Y154.613
N9750 X282.74 Y154.819
N9760 X282.555 Y155.014
N9770 X282.358 Y155.195
N9780 X282.148 Y155.363
N9790 X281.928 Y155.517
N9800 X281.698 Y155.655
N9810 X281.459 Y155.778
N9820 X281.213 Y155.885
N9830 X280.96 Y155.975
N9840 X280.701 Y156.047
N9850 X280.438 Y156.102
N9860 X280.306 Y156.121
N9870 X280.022 Y156.147
N9880 Z-33.6 F100
N9890 X280.306 Y156.121 F200
N9900 X280.438 Y156.102
N9910 X280.701 Y156.047
N9920 X280.96 Y155.975
N9930 X281.213 Y155.885
N9940 X281.459 Y155.778
N9950 X281.698 Y155.655
N9960 X281.928 Y155.517
N9970 X282.148 Y155.363
N9980 X282.358 Y155.195
N9990 X282.555 Y155.014
N10 X282.74 Y154.819
N20 X282.912 Y154.613
N30 X283.07 Y154.395
N40 X283.212 Y154.168
N50 X283.339 Y153.931
N60 X283.45 Y153.687
N70 X283.497 Y153.561
N80 X283.581 Y153.298
N90 Z-35.2 F100
N100 X283.497 Y153.561 F200
N110 X283.45 Y153.687
N120 X283.339 Y153.931
N130 X283.212 Y154.168
N140 X283.07 Y154.395
N150 X282.912 Y154.613
N160 X282.74 Y154.819
N170 X282.555 Y155.014
N180 X282.358 Y155.195
N190 X282.148 Y155.363
N200 X281.928 Y155.517
N210 X281.698 Y155.655
N220 X281.459 Y155.778
N230 X281.213 Y155.885
N240 X280.96 Y155.975
N250 X280.701 Y156.047
N260 X280.438 Y156.102
N270 X280.306 Y156.121
N280 X280.022 Y156.147
N290 Z-36.8 F100
N300 X280.306 Y156.121 F200
N310 X280.438 Y156.102
N320 X280.701 Y156.047
N330 X280.96 Y155.975
N340 X281.213 Y155.885
N350 X281.459 Y155.778
N360 X281.698 Y155.655
N370 X281.928 Y155.517
N380 X282.148 Y155.363
N390 X282.358 Y155.195
N400 X282.555 Y155.014
N410 X282.74 Y154.819
N420 X282.912 Y154.613
N430 X283.07 Y154.395
N440 X283.212 Y154.168
N450 X283.339 Y153.931
N460 X283.45 Y153.687
N470 X283.497 Y153.561
N480 X283.581 Y153.298
N490 Z-38.4 F100
N500 X283.497 Y153.561 F200
N510 X283.45 Y153.687
N520 X283.339 Y153.931
N530 X283.212 Y154.168
N540 X283.07 Y154.395
N550 X282.912 Y154.613
N560 X282.74 Y154.819
N570 X282.555 Y155.014
N580 X282.358 Y155.195
N590 X282.148 Y155.363
N600 X281.928 Y155.517
N610 X281.698 Y155.655
N620 X281.459 Y155.778
N630 X281.213 Y155.885
N640 X280.96 Y155.975
N650 X280.701 Y156.047
N660 X280.438 Y156.102
N670 X280.306 Y156.121
N680 X280.022 Y156.147
N690 Z-40 F100
N700 X280.306 Y156.121 F200
N710 X280.438 Y156.102
N720 X280.701 Y156.047
N730 X280.96 Y155.975
N740 X281.213 Y155.885
N750 X281.459 Y155.778
N760 X281.698 Y155.655
N770 X281.928 Y155.517
N780 X282.148 Y155.363
N790 X282.358 Y155.195
N800 X282.555 Y155.014
N810 X282.74 Y154.819
N820 X282.912 Y154.613
N830 X283.07 Y154.395
N840 X283.212 Y154.168
N850 X283.339 Y153.931
N860 X283.45 Y153.687
N870 X283.497 Y153.561
N880 X283.581 Y153.298
N890 Z-17.6 F100
N900 X283.616 Y153.189
N910 X286.442 Y140.463
N920 X286.476 Y140.26
N930 X286.509 Y140.065 F200
N940 X286.527 Y139.914
N950 X286.54 Y139.611
N960 X286.529 Y139.307
N970 X286.496 Y139.005
N980 X286.44 Y138.707
N990 X286.361 Y138.414
N1000 X286.261 Y138.127
N1010 X286.139 Y137.849
N1020 X285.996 Y137.581
N1030 X285.833 Y137.325
N1040 X285.652 Y137.081
N1050 X285.452 Y136.852
N1060 X285.236 Y136.639
N1070 X285.005 Y136.443
N1080 X284.759 Y136.265
N1090 X284.5 Y136.106
N1100 X284.23 Y135.967
N1110 X283.95 Y135.849
N1120 X283.662 Y135.753
N1130 X283.368 Y135.678
N1140 X283.069 Y135.626
N1150 X282.766 Y135.597
N1160 X282.463 Y135.591
N1170 X282.16 Y135.608
N1180 X281.859 Y135.648
N1190 X281.562 Y135.71
N1200 X281.27 Y135.795
N1210 X280.986 Y135.902
N1220 X280.71 Y136.03
N1230 X280.446 Y136.178
N1240 X280.193 Y136.346
N1250 X279.953 Y136.533
N1260 X279.841 Y136.635
N1270 X267.05 Y149.426
N1280 X266.868 Y149.636
N1290 X266.7 Y149.857
N1300 X266.549 Y150.089
N1310 X266.414 Y150.332
N1320 X266.296 Y150.583
N1330 X266.195 Y150.841
N1340 X266.113 Y151.106
N1350 X266.049 Y151.376
N1360 X266.005 Y151.65
N1370 X265.979 Y151.926
N1380 X265.973 Y152.204
N1390 X265.985 Y152.481
N1400 X266.017 Y152.757
N1410 X266.068 Y153.029
N1420 X266.138 Y153.298
N1430 X266.226 Y153.561
N1440 X266.332 Y153.817
N1450 X266.456 Y154.066
N1460 X266.596 Y154.305
N1470 X266.753 Y154.534
N1480 X266.925 Y154.751
N1490 X267.112 Y154.956
N1500 X267.313 Y155.148
N1510 X267.526 Y155.325
N1520 X267.751 Y155.487
N1530 X267.987 Y155.633
N1540 X268.233 Y155.763
N1550 X268.486 Y155.875
N1560 X268.747 Y155.969
N1570 X269.014 Y156.045
N1580 X269.286 Y156.102
N1590 X269.423 Y156.121
N1600 X269.706 Y156.146
N1610 X261.254 F100
N1620 Z-19.2
N1630 X260.978 Y156.121 F200
N1640 X260.841 Y156.102
N1650 X260.57 Y156.045
N1660 X260.303 Y155.969
N1670 X260.042 Y155.875
N1680 X259.788 Y155.763
N1690 X259.543 Y155.633
N1700 X259.307 Y155.487
N1710 X259.081 Y155.325
N1720 X258.868 Y155.148
N1730 X258.667 Y154.956
N1740 X258.481 Y154.751
N1750 X258.308 Y154.534
N1760 X258.152 Y154.305
N1770 X258.011 Y154.066
N1780 X257.887 Y153.817
N1790 X257.781 Y153.561
N1800 X257.693 Y153.298
N1810 X257.623 Y153.029
N1820 X257.573 Y152.757
N1830 X257.541 Y152.481
N1840 X257.528 Y152.204
N1850 X257.534 Y151.926
N1860 X257.56 Y151.65
N1870 X257.605 Y151.376
N1880 X257.668 Y151.106
N1890 X257.751 Y150.841
N1900 X257.851 Y150.583
N1910 X257.969 Y150.332
N1920 X258.104 Y150.089
N1930 X258.256 Y149.857
N1940 X258.423 Y149.636
N1950 X258.605 Y149.426
N1960 X258.703 Y149.328
N1970 X282.251 Y125.781
N1980 X282.363 Y125.678
N1990 X282.603 Y125.492
N2000 X282.856 Y125.324
N2010 X283.12 Y125.175
N2020 X283.396 Y125.047
N2030 X283.68 Y124.941
N2040 X283.972 Y124.856
N2050 X284.269 Y124.793
N2060 X284.57 Y124.753
N2070 X284.873 Y124.736
N2080 X285.176 Y124.742
N2090 X285.479 Y124.772
N2100 X285.778 Y124.823
N2110 X286.072 Y124.898
N2120 X286.36 Y124.994
N2130 X286.64 Y125.112
N2140 X286.91 Y125.251
N2150 X287.169 Y125.41
N2160 X287.415 Y125.588
N2170 X287.646 Y125.784
N2180 X287.863 Y125.997
N2190 X288.062 Y126.226
N2200 X288.244 Y126.47
N2210 X288.406 Y126.726
N2220 X288.549 Y126.994
N2230 X288.671 Y127.272
N2240 X288.771 Y127.559
N2250 X288.85 Y127.852
N2260 X288.906 Y128.151
N2270 X288.939 Y128.452
N2280 X288.95 Y128.756
N2290 X288.937 Y129.059
N2300 X288.919 Y129.21
N2310 X288.886 Y129.406
N2320 X291.296 Y118.553 F100
N2330 Z-20.8
N2340 X291.329 Y118.355 F200
N2350 X291.347 Y118.204
N2360 X291.36 Y117.901
N2370 X291.349 Y117.598
N2380 X291.316 Y117.296
N2390 X291.26 Y116.997
N2400 X291.181 Y116.704
N2410 X291.081 Y116.418
N2420 X290.959 Y116.14
N2430 X290.816 Y115.872
N2440 X290.654 Y115.615
N2450 X290.472 Y115.372
N2460 X290.273 Y115.143
N2470 X290.056 Y114.93
N2480 X289.825 Y114.733
N2490 X289.579 Y114.555
N2500 X289.32 Y114.396
N2510 X289.05 Y114.258
N2520 X288.77 Y114.14
N2530 X288.482 Y114.043
N2540 X288.188 Y113.969
N2550 X287.889 Y113.917
N2560 X287.587 Y113.888
N2570 X287.283 Y113.882
N2580 X286.98 Y113.899
N2590 X286.679 Y113.938
N2600 X286.382 Y114.001
N2610 X286.09 Y114.086
N2620 X285.806 Y114.193
N2630 X285.531 Y114.32
N2640 X285.266 Y114.469
N2650 X285.013 Y114.637
N2660 X284.773 Y114.824
N2670 X284.661 Y114.926
N2680 X255.675 Y143.912
N2690 X255.53 Y144.074
N2700 X255.393 Y144.243
N2710 X255.267 Y144.42
N2720 X255.15 Y144.603
N2730 X255.043 Y144.793
N2740 X254.946 Y144.988
N2750 X254.86 Y145.188
N2760 X254.785 Y145.392
N2770 X254.722 Y145.6
N2780 X254.67 Y145.811
N2790 X254.629 Y146.025
N2800 X254.6 Y146.24
N2810 X254.582 Y146.457
N2820 X254.577 Y146.674
N2830 X254.583 Y146.892
N2840 X254.592 Y147
N2850 X254.627 Y147.267
N2860 X254.643 Y147.383 F100
N2870 X255.895 Y153.024
N2880 X255.95 Y153.223
N2890 X256.002 Y153.412 F200
N2900 X256.045 Y153.544
N2910 X256.15 Y153.801
N2920 X256.273 Y154.05
N2930 X256.412 Y154.29
N2940 X256.568 Y154.519
N2950 X256.739 Y154.737
N2960 X256.925 Y154.943
N2970 X257.124 Y155.136
N2980 X257.337 Y155.314
N2990 X257.561 Y155.477
N3000 X257.796 Y155.624
N3010 X258.041 Y155.755
N3020 X258.294 Y155.868
N3030 X258.555 Y155.964
N3040 X258.821 Y156.041
N3050 X259.092 Y156.099
N3060 X259.23 Y156.119
N3070 X259.585 Y156.152
N3080 Z-22.4 F100
N3090 X259.23 Y156.119 F200
N3100 X259.092 Y156.099
N3110 X258.821 Y156.041
N3120 X258.555 Y155.964
N3130 X258.294 Y155.868
N3140 X258.041 Y155.755
N3150 X257.796 Y155.624
N3160 X257.561 Y155.477
N3170 X257.337 Y155.314
N3180 X257.124 Y155.136
N3190 X256.925 Y154.943
N3200 X256.739 Y154.737
N3210 X256.568 Y154.519
N3220 X256.412 Y154.29
N3230 X256.273 Y154.05
N3240 X256.15 Y153.801
N3250 X256.045 Y153.544
N3260 X256.002 Y153.412
N3270 X255.95 Y153.223
N3280 Z-24 F100
N3290 X256.002 Y153.412 F200
N3300 X256.045 Y153.544
N3310 X256.15 Y153.801
N3320 X256.273 Y154.05
N3330 X256.412 Y154.29
N3340 X256.568 Y154.519
N3350 X256.739 Y154.737
N3360 X256.925 Y154.943
N3370 X257.124 Y155.136
N3380 X257.337 Y155.314
N3390 X257.561 Y155.477
N3400 X257.796 Y155.624
N3410 X258.041 Y155.755
N3420 X258.294 Y155.868
N3430 X258.555 Y155.964
N3440 X258.821 Y156.041
N3450 X259.092 Y156.099
N3460 X259.23 Y156.119
N3470 X259.585 Y156.152
N3480 Z-25.6 F100
N3490 X259.23 Y156.119 F200
N3500 X259.092 Y156.099
N3510 X258.821 Y156.041
N3520 X258.555 Y155.964
N3530 X258.294 Y155.868
N3540 X258.041 Y155.755
N3550 X257.796 Y155.624
N3560 X257.561 Y155.477
N3570 X257.337 Y155.314
N3580 X257.124 Y155.136
N3590 X256.925 Y154.943
N3600 X256.739 Y154.737
N3610 X256.568 Y154.519
N3620 X256.412 Y154.29
N3630 X256.273 Y154.05
N3640 X256.15 Y153.801
N3650 X256.045 Y153.544
N3660 X256.002 Y153.412
N3670 X255.95 Y153.223
N3680 Z-27.2 F100
N3690 X256.002 Y153.412 F200
N3700 X256.045 Y153.544
N3710 X256.15 Y153.801
N3720 X256.273 Y154.05
N3730 X256.412 Y154.29
N3740 X256.568 Y154.519
N3750 X256.739 Y154.737
N3760 X256.925 Y154.943
N3770 X257.124 Y155.136
N3780 X257.337 Y155.314
N3790 X257.561 Y155.477
N3800 X257.796 Y155.624
N3810 X258.041 Y155.755
N3820 X258.294 Y155.868
N3830 X258.555 Y155.964
N3840 X258.821 Y156.041
N3850 X259.092 Y156.099
N3860 X259.23 Y156.119
N3870 X259.585 Y156.152
N3880 Z-28.8 F100
N3890 X259.23 Y156.119 F200
N3900 X259.092 Y156.099
N3910 X258.821 Y156.041
N3920 X258.555 Y155.964
N3930 X258.294 Y155.868
N3940 X258.041 Y155.755
N3950 X257.796 Y155.624
N3960 X257.561 Y155.477
N3970 X257.337 Y155.314
N3980 X257.124 Y155.136
N3990 X256.925 Y154.943
N4000 X256.739 Y154.737
N4010 X256.568 Y154.519
N4020 X256.412 Y154.29
N4030 X256.273 Y154.05
N4040 X256.15 Y153.801
N4050 X256.045 Y153.544
N4060 X256.002 Y153.412
N4070 X255.95 Y153.223
N4080 Z-30.4 F100
N4090 X256.002 Y153.412 F200
N4100 X256.045 Y153.544
N4110 X256.15 Y153.801
N4120 X256.273 Y154.05
N4130 X256.412 Y154.29
N4140 X256.568 Y154.519
N4150 X256.739 Y154.737
N4160 X256.925 Y154.943
N4170 X257.124 Y155.136
N4180 X257.337 Y155.314
N4190 X257.561 Y155.477
N4200 X257.796 Y155.624
N4210 X258.041 Y155.755
N4220 X258.294 Y155.868
N4230 X258.555 Y155.964
N4240 X258.821 Y156.041
N4250 X259.092 Y156.099
N4260 X259.23 Y156.119
N4270 X259.585 Y156.152
N4280 Z-32 F100
N4290 X259.23 Y156.119 F200
N4300 X259.092 Y156.099
N4310 X258.821 Y156.041
N4320 X258.555 Y155.964
N4330 X258.294 Y155.868
N4340 X258.041 Y155.755
N4350 X257.796 Y155.624
N4360 X257.561 Y155.477
N4370 X257.337 Y155.314
N4380 X257.124 Y155.136
N4390 X256.925 Y154.943
N4400 X256.739 Y154.737
N4410 X256.568 Y154.519
N4420 X256.412 Y154.29
N4430 X256.273 Y154.05
N4440 X256.15 Y153.801
N4450 X256.045 Y153.544
N4460 X256.002 Y153.412
N4470 X255.95 Y153.223
N4480 Z-33.6 F100
N4490 X256.002 Y153.412 F200
N4500 X256.045 Y153.544
N4510 X256.15 Y153.801
N4520 X256.273 Y154.05
N4530 X256.412 Y154.29
N4540 X256.568 Y154.519
N4550 X256.739 Y154.737
N4560 X256.925 Y154.943
N4570 X257.124 Y155.136
N4580 X257.337 Y155.314
N4590 X257.561 Y155.477
N4600 X257.796 Y155.624
N4610 X258.041 Y155.755
N4620 X258.294 Y155.868
N4630 X258.555 Y155.964
N4640 X258.821 Y156.041
N4650 X259.092 Y156.099
N4660 X259.23 Y156.119
N4670 X259.585 Y156.152
N4680 Z-35.2 F100
N4690 X259.23 Y156.119 F200
N4700 X259.092 Y156.099
N4710 X258.821 Y156.041
N4720 X258.555 Y155.964
N4730 X258.294 Y155.868
N4740 X258.041 Y155.755
N4750 X257.796 Y155.624
N4760 X257.561 Y155.477
N4770 X257.337 Y155.314
N4780 X257.124 Y155.136
N4790 X256.925 Y154.943
N4800 X256.739 Y154.737
N4810 X256.568 Y154.519
N4820 X256.412 Y154.29
N4830 X256.273 Y154.05
N4840 X256.15 Y153.801
N4850 X256.045 Y153.544
N4860 X256.002 Y153.412
N4870 X255.95 Y153.223
N4880 Z-36.8 F100
N4890 X256.002 Y153.412 F200
N4900 X256.045 Y153.544
N4910 X256.15 Y153.801
N4920 X256.273 Y154.05
N4930 X256.412 Y154.29
N4940 X256.568 Y154.519
N4950 X256.739 Y154.737
N4960 X256.925 Y154.943
N4970 X257.124 Y155.136
N4980 X257.337 Y155.314
N4990 X257.561 Y155.477
N5000 X257.796 Y155.624
N5010 X258.041 Y155.755
N5020 X258.294 Y155.868
N5030 X258.555 Y155.964
N5040 X258.821 Y156.041
N5050 X259.092 Y156.099
N5060 X259.23 Y156.119
N5070 X259.585 Y156.152
N5080 Z-38.4 F100
N5090 X259.23 Y156.119 F200
N5100 X259.092 Y156.099
N5110 X258.821 Y156.041
N5120 X258.555 Y155.964
N5130 X258.294 Y155.868
N5140 X258.041 Y155.755
N5150 X257.796 Y155.624
N5160 X257.561 Y155.477
N5170 X257.337 Y155.314
N5180 X257.124 Y155.136
N5190 X256.925 Y154.943
N5200 X256.739 Y154.737
N5210 X256.568 Y154.519
N5220 X256.412 Y154.29
N5230 X256.273 Y154.05
N5240 X256.15 Y153.801
N5250 X256.045 Y153.544
N5260 X256.002 Y153.412
N5270 X255.95 Y153.223
N5280 Z-40 F100
N5290 X256.002 Y153.412 F200
N5300 X256.045 Y153.544
N5310 X256.15 Y153.801
N5320 X256.273 Y154.05
N5330 X256.412 Y154.29
N5340 X256.568 Y154.519
N5350 X256.739 Y154.737
N5360 X256.925 Y154.943
N5370 X257.124 Y155.136
N5380 X257.337 Y155.314
N5390 X257.561 Y155.477
N5400 X257.796 Y155.624
N5410 X258.041 Y155.755
N5420 X258.294 Y155.868
N5430 X258.555 Y155.964
N5440 X258.821 Y156.041
N5450 X259.092 Y156.099
N5460 X259.23 Y156.119
N5470 X259.585 Y156.152
N5480 Z-22.4 F100
N5490 X259.23 Y156.119
N5500 X259.08 Y156.098
N5510 X258.784 Y156.032
N5520 X258.495 Y155.944
N5530 X258.213 Y155.834
N5540 X257.94 Y155.704
N5550 X257.677 Y155.553
N5560 X257.427 Y155.383
N5570 X257.19 Y155.194
N5580 X256.969 Y154.989
N5590 X256.763 Y154.767
N5600 X256.575 Y154.53
N5610 X256.405 Y154.279
N5620 X256.255 Y154.017
N5630 X256.124 Y153.743
N5640 X256.015 Y153.461
N5650 X255.928 Y153.171
N5660 X255.895 Y153.024
N5670 X253.109 Y140.473
N5680 X253.093 Y140.356
N5690 X253.058 Y140.09 F200
N5700 X253.049 Y139.981
N5710 X253.043 Y139.764
N5720 X253.048 Y139.547
N5730 X253.065 Y139.33
N5740 X253.094 Y139.114
N5750 X253.135 Y138.901
N5760 X253.187 Y138.689
N5770 X253.251 Y138.481
N5780 X253.326 Y138.277
N5790 X253.412 Y138.077
N5800 X253.508 Y137.882
N5810 X253.615 Y137.693
N5820 X253.732 Y137.51
N5830 X253.859 Y137.333
N5840 X253.995 Y137.163
N5850 X254.141 Y137.001
N5860 X254.218 Y136.925
N5870 X287.071 Y104.071
N5880 X287.183 Y103.969
N5890 X287.423 Y103.782
N5900 X287.676 Y103.614
N5910 X287.941 Y103.466
N5920 X288.216 Y103.338
N5930 X288.5 Y103.231
N5940 X288.792 Y103.146
N5950 X289.089 Y103.084
N5960 X289.39 Y103.044
N5970 X289.693 Y103.027
N5980 X289.997 Y103.033
N5990 X290.299 Y103.062
N6000 X290.598 Y103.114
N6010 X290.892 Y103.188
N6020 X291.18 Y103.285
N6030 X291.46 Y103.403
N6040 X291.73 Y103.542
N6050 X291.989 Y103.701
N6060 X292.235 Y103.879
N6070 X292.466 Y104.075
N6080 X292.683 Y104.288
N6090 X292.882 Y104.517
N6100 X293.064 Y104.76
N6110 X293.226 Y105.017
N6120 X293.369 Y105.285
N6130 X293.491 Y105.563
N6140 X293.591 Y105.849
N6150 X293.67 Y106.143
N6160 X293.726 Y106.441
N6170 X293.759 Y106.743
N6180 X293.77 Y107.046
N6190 X293.757 Y107.35
N6200 X293.739 Y107.5
N6210 X293.706 Y107.699
N6220 X296.115 Y96.846 F100
N6230 Z-24
N6240 X296.149 Y96.646 F200
N6250 X296.167 Y96.495
N6260 X296.18 Y96.192
N6270 X296.169 Y95.888
N6280 X296.136 Y95.586
N6290 X296.08 Y95.288
N6300 X296.001 Y94.995
N6310 X295.901 Y94.708
N6320 X295.779 Y94.43
N6330 X295.636 Y94.162
N6340 X295.474 Y93.906
N6350 X295.292 Y93.662
N6360 X295.093 Y93.433
N6370 X294.876 Y93.22
N6380 X294.645 Y93.024
N6390 X294.399 Y92.846
N6400 X294.14 Y92.687
N6410 X293.87 Y92.548
N6420 X293.59 Y92.43
N6430 X293.302 Y92.334
N6440 X293.008 Y92.259
N6450 X292.709 Y92.207
N6460 X292.407 Y92.178
N6470 X292.103 Y92.172
N6480 X291.8 Y92.189
N6490 X291.499 Y92.229
N6500 X291.202 Y92.292
N6510 X290.91 Y92.376
N6520 X290.626 Y92.483
N6530 X290.351 Y92.611
N6540 X290.086 Y92.759
N6550 X289.833 Y92.927
N6560 X289.593 Y93.114
N6570 X289.481 Y93.216
N6580 X252.606 Y130.091
N6590 X252.461 Y130.253
N6600 X252.325 Y130.423
N6610 X252.198 Y130.599
N6620 X252.081 Y130.783
N6630 X251.974 Y130.972
N6640 X251.877 Y131.167
N6650 X251.792 Y131.367
N6660 X251.717 Y131.571
N6670 X251.653 Y131.779
N6680 X251.601 Y131.99
N6690 X251.56 Y132.204
N6700 X251.531 Y132.419
N6710 X251.514 Y132.636
N6720 X251.508 Y132.854
N6730 X251.515 Y133.071
N6740 X251.524 Y133.179
N6750 X251.559 Y133.446
N6760 X250.024 Y126.535 F100
N6770 Z-25.6
N6780 X249.989 Y126.269 F200
N6790 X249.98 Y126.161
N6800 X249.974 Y125.943
N6810 X249.98 Y125.726
N6820 X249.997 Y125.509
N6830 X250.026 Y125.293
N6840 X250.067 Y125.08
N6850 X250.119 Y124.869
N6860 X250.183 Y124.661
N6870 X250.257 Y124.456
N6880 X250.343 Y124.257
N6890 X250.44 Y124.062
N6900 X250.547 Y123.872
N6910 X250.664 Y123.689
N6920 X250.791 Y123.512
N6930 X250.927 Y123.343
N6940 X251.072 Y123.181
N6950 X291.891 Y82.362
N6960 X292.003 Y82.26
N6970 X292.243 Y82.073
N6980 X292.496 Y81.905
N6990 X292.761 Y81.756
N7000 X293.036 Y81.628
N7010 X293.32 Y81.522
N7020 X293.612 Y81.437
N7030 X293.909 Y81.374
N7040 X294.21 Y81.334
N7050 X294.513 Y81.317
N7060 X294.817 Y81.324
N7070 X295.119 Y81.353
N7080 X295.418 Y81.405
N7090 X295.712 Y81.479
N7100 X296 Y81.575
N7110 X296.28 Y81.693
N7120 X296.55 Y81.832
N7130 X296.809 Y81.991
N7140 X297.055 Y82.169
N7150 X297.287 Y82.365
N7160 X297.503 Y82.579
N7170 X297.702 Y82.808
N7180 X297.884 Y83.051
N7190 X298.046 Y83.307
N7200 X298.189 Y83.575
N7210 X298.311 Y83.853
N7220 X298.411 Y84.14
N7230 X298.49 Y84.433
N7240 X298.546 Y84.732
N7250 X298.579 Y85.033
N7260 X298.59 Y85.337
N7270 X298.577 Y85.64
N7280 X298.559 Y85.791
N7290 X298.525 Y85.992
N7300 X300.935 Y75.139 F100
N7310 Z-27.2
N7320 X300.969 Y74.936 F200
N7330 X300.987 Y74.786
N7340 X301 Y74.482
N7350 X300.99 Y74.179
N7360 X300.956 Y73.877
N7370 X300.9 Y73.579
N7380 X300.821 Y73.285
N7390 X300.721 Y72.999
N7400 X300.599 Y72.721
N7410 X300.456 Y72.453
N7420 X300.294 Y72.196
N7430 X300.112 Y71.953
N7440 X299.913 Y71.724
N7450 X299.697 Y71.511
N7460 X299.465 Y71.315
N7470 X299.219 Y71.136
N7480 X298.96 Y70.978
N7490 X298.69 Y70.839
N7500 X298.41 Y70.721
N7510 X298.122 Y70.624
N7520 X297.828 Y70.55
N7530 X297.529 Y70.498
N7540 X297.227 Y70.469
N7550 X296.923 Y70.463
N7560 X296.62 Y70.48
N7570 X296.319 Y70.52
N7580 X296.022 Y70.582
N7590 X295.73 Y70.667
N7600 X295.446 Y70.774
N7610 X295.171 Y70.902
N7620 X294.906 Y71.05
N7630 X294.653 Y71.218
N7640 X294.414 Y71.405
N7650 X294.301 Y71.507
N7660 X267.581 Y98.227
N7670 X267.515 Y98.292
N7680 X267.389 Y98.428
N7690 X267.27 Y98.571
N7700 X267.159 Y98.719
N7710 X267.107 Y98.796
N7720 X266.98 Y98.883
N7730 X266.74 Y99.075
N7740 X266.627 Y99.181
N7750 X249.538 Y116.27
N7760 X249.393 Y116.432
N7770 X249.256 Y116.602
N7780 X249.129 Y116.779
N7790 X249.012 Y116.962
N7800 X248.905 Y117.151
N7810 X248.809 Y117.346
N7820 X248.723 Y117.546
N7830 X248.648 Y117.75
N7840 X248.585 Y117.958
N7850 X248.532 Y118.169
N7860 X248.492 Y118.383
N7870 X248.463 Y118.599
N7880 X248.445 Y118.815
N7890 X248.44 Y119.033
N7900 X248.446 Y119.25
N7910 X248.455 Y119.359
N7920 X248.49 Y119.625
N7930 X246.956 Y112.715 F100
N7940 Z-28.8
N7950 X246.921 Y112.448 F200
N7960 X246.912 Y112.34
N7970 X246.905 Y112.123
N7980 X246.911 Y111.905
N7990 X246.928 Y111.688
N8000 X246.957 Y111.473
N8010 X246.998 Y111.259
N8020 X247.05 Y111.048
N8030 X247.114 Y110.84
N8040 X247.189 Y110.636
N8050 X247.275 Y110.436
N8060 X247.371 Y110.241
N8070 X247.478 Y110.051
N8080 X247.595 Y109.868
N8090 X247.722 Y109.691
N8100 X247.858 Y109.522
N8110 X248.004 Y109.36
N8120 X248.08 Y109.283
N8130 X265.093 Y92.27
N8140 X265.177 Y92.192
N8150 X265.353 Y92.044
N8160 X265.538 Y91.906
N8170 X265.73 Y91.78
N8180 X265.929 Y91.665
N8190 X266.134 Y91.561
N8200 X266.346 Y91.469
N8210 X266.561 Y91.39
N8220 X266.782 Y91.323
N8230 X267.005 Y91.269
N8240 X267.232 Y91.228
N8250 X267.46 Y91.2
N8260 X267.69 Y91.185
N8270 X267.92 Y91.184
N8280 X268.149 Y91.195
N8290 X268.378 Y91.22
N8300 X268.492 Y91.239
N8310 X268.944 Y89.201
N8320 X268.978 Y89.072
N8330 X269.061 Y88.819
N8340 X269.162 Y88.572
N8350 X269.278 Y88.332
N8360 X269.411 Y88.1
N8370 X269.559 Y87.878
N8380 X269.721 Y87.667
N8390 X269.897 Y87.466
N8400 X296.711 Y60.652
N8410 X296.824 Y60.55
N8420 X297.063 Y60.363
N8430 X297.316 Y60.195
N8440 X297.581 Y60.047
N8450 X297.856 Y59.919
N8460 X298.14 Y59.812
N8470 X298.432 Y59.727
N8480 X298.729 Y59.665
N8490 X299.03 Y59.625
N8500 X299.333 Y59.608
N8510 X299.637 Y59.614
N8520 X299.939 Y59.643
N8530 X300.238 Y59.695
N8540 X300.533 Y59.769
N8550 X300.82 Y59.866
N8560 X301.1 Y59.984
N8570 X301.37 Y60.123
N8580 X301.629 Y60.282
N8590 X301.875 Y60.46
N8600 X302.107 Y60.656
N8610 X302.323 Y60.869
N8620 X302.522 Y61.098
N8630 X302.704 Y61.342
N8640 X302.866 Y61.598
N8650 X303.009 Y61.866
N8660 X303.131 Y62.144
N8670 X303.232 Y62.431
N8680 X303.31 Y62.724
N8690 X303.366 Y63.022
N8700 X303.4 Y63.324
N8710 X303.41 Y63.627
N8720 X303.397 Y63.931
N8730 X303.38 Y64.082
N8740 X303.345 Y64.285
N8750 X305.755 Y53.432 F100
N8760 Z-30.4
N8770 X305.79 Y53.227 F200
N8780 X305.807 Y53.076
N8790 X305.82 Y52.773
N8800 X305.81 Y52.469
N8810 X305.776 Y52.168
N8820 X305.72 Y51.869
N8830 X305.642 Y51.576
N8840 X305.541 Y51.289
N8850 X305.419 Y51.011
N8860 X305.276 Y50.743
N8870 X305.114 Y50.487
N8880 X304.932 Y50.243
N8890 X304.733 Y50.014
N8900 X304.517 Y49.801
N8910 X304.285 Y49.605
N8920 X304.039 Y49.427
N8930 X303.78 Y49.268
N8940 X303.51 Y49.129
N8950 X303.23 Y49.011
N8960 X302.943 Y48.915
N8970 X302.648 Y48.84
N8980 X302.349 Y48.789
N8990 X302.047 Y48.759
N9000 X301.743 Y48.753
N9010 X301.44 Y48.77
N9020 X301.139 Y48.81
N9030 X300.842 Y48.873
N9040 X300.55 Y48.958
N9050 X300.266 Y49.064
N9060 X299.991 Y49.192
N9070 X299.726 Y49.341
N9080 X299.473 Y49.509
N9090 X299.234 Y49.695
N9100 X299.121 Y49.798
N9110 X272.307 Y76.612
N9120 X272.131 Y76.812
N9130 X271.969 Y77.024
N9140 X271.821 Y77.246
N9150 X271.688 Y77.477
N9160 X271.572 Y77.717
N9170 X271.471 Y77.964
N9180 X271.388 Y78.217
N9190 X271.354 Y78.346
N9200 X269.639 Y86.071
N9210 X269.579 Y85.981
N9220 X269.449 Y85.805
N9230 X269.31 Y85.638
N9240 X269.162 Y85.478
N9250 X269.006 Y85.326
N9260 X268.841 Y85.183
N9270 X268.669 Y85.049
N9280 X268.49 Y84.925
N9290 X268.305 Y84.811
N9300 X268.113 Y84.707
N9310 X267.917 Y84.613
N9320 X267.715 Y84.531
N9330 X267.509 Y84.459
N9340 X267.3 Y84.399
N9350 X267.087 Y84.351
N9360 X266.873 Y84.313
N9370 X266.656 Y84.288
N9380 X266.439 Y84.275
N9390 X266.221 Y84.273
N9400 X266.003 Y84.283
N9410 X265.787 Y84.305
N9420 X265.571 Y84.339
N9430 X265.358 Y84.385
N9440 X265.148 Y84.442
N9450 X264.941 Y84.51
N9460 X264.738 Y84.589
N9470 X264.54 Y84.68
N9480 X264.347 Y84.781
N9490 X264.16 Y84.892
N9500 X263.979 Y85.014
N9510 X263.805 Y85.145
N9520 X263.638 Y85.285
N9530 X263.559 Y85.36
N9540 X246.469 Y102.45
N9550 X246.324 Y102.612
N9560 X246.188 Y102.781
N9570 X246.061 Y102.958
N9580 X245.944 Y103.141
N9590 X245.837 Y103.33
N9600 X245.74 Y103.525
N9610 X245.654 Y103.725
N9620 X245.58 Y103.93
N9630 X245.516 Y104.138
N9640 X245.464 Y104.349
N9650 X245.423 Y104.562
N9660 X245.394 Y104.778
N9670 X245.377 Y104.995
N9680 X245.371 Y105.212
N9690 X245.377 Y105.43
N9700 X245.386 Y105.538
N9710 X245.422 Y105.804
N9720 X243.887 Y98.894 F100
N9730 Z-32
N9740 X243.852 Y98.628 F200
N9750 X243.843 Y98.519
N9760 X243.837 Y98.302
N9770 X243.842 Y98.084
N9780 X243.86 Y97.868
N9790 X243.889 Y97.652
N9800 X243.929 Y97.438
N9810 X243.982 Y97.227
N9820 X244.045 Y97.019
N9830 X244.12 Y96.815
N9840 X244.206 Y96.615
N9850 X244.303 Y96.42
N9860 X244.409 Y96.231
N9870 X244.527 Y96.047
N9880 X244.653 Y95.871
N9890 X244.79 Y95.701
N9900 X244.935 Y95.539
N9910 X245.012 Y95.462
N9920 X262.025 Y78.45
N9930 X262.136 Y78.345
N9940 X262.375 Y78.152
N9950 X262.628 Y77.978
N9960 X262.893 Y77.825
N9970 X263.17 Y77.692
N9980 X263.456 Y77.58
N9990 X263.749 Y77.491
N10 X264.049 Y77.425
N20 X264.353 Y77.381
N30 X264.659 Y77.362
N40 X264.966 Y77.365
N50 X265.271 Y77.392
N60 X265.574 Y77.443
N70 X265.872 Y77.517
N80 X266.163 Y77.613
N90 X266.446 Y77.731
N100 X266.583 Y77.801
N110 X266.511 Y77.661
N120 X266.391 Y77.37
N130 X266.293 Y77.071
N140 X266.219 Y76.766
N150 X266.17 Y76.455
N160 X266.145 Y76.142
N170 Y75.827
N180 X266.17 Y75.514
N190 X266.219 Y75.203
N200 X266.292 Y74.898
N210 X266.39 Y74.599
N220 X266.51 Y74.308
N230 X266.653 Y74.028
N240 X266.817 Y73.76
N250 X267.002 Y73.506
N260 X267.207 Y73.267
N270 X301.531 Y38.943
N280 X301.644 Y38.841
N290 X301.883 Y38.654
N300 X302.136 Y38.486
N310 X302.401 Y38.337
N320 X302.676 Y38.21
N330 X302.961 Y38.103
N340 X303.252 Y38.018
N350 X303.549 Y37.955
N360 X303.85 Y37.916
N370 X304.153 Y37.899
N380 X304.457 Y37.905
N390 X304.759 Y37.934
N400 X305.058 Y37.986
N410 X305.353 Y38.06
N420 X305.641 Y38.157
N430 X305.92 Y38.275
N440 X306.19 Y38.413
N450 X306.449 Y38.572
N460 X306.695 Y38.75
N470 X306.927 Y38.947
N480 X307.143 Y39.16
N490 X307.342 Y39.389
N500 X307.524 Y39.632
N510 X307.686 Y39.889
N520 X307.829 Y40.157
N530 X307.951 Y40.435
N540 X308.052 Y40.721
N550 X308.13 Y41.014
N560 X308.186 Y41.313
N570 X308.22 Y41.615
N580 X308.23 Y41.918
N590 X308.217 Y42.221
N600 X308.2 Y42.372
N610 X308.165 Y42.578
N620 X310.575 Y31.725 F100
N630 Z-33.6
N640 X310.61 Y31.517 F200
N650 X310.627 Y31.367
N660 X310.64 Y31.063
N670 X310.63 Y30.76
N680 X310.596 Y30.458
N690 X310.54 Y30.16
N700 X310.462 Y29.866
N710 X310.361 Y29.58
N720 X310.239 Y29.302
N730 X310.097 Y29.034
N740 X309.934 Y28.777
N750 X309.752 Y28.534
N760 X309.553 Y28.305
N770 X309.337 Y28.092
N780 X309.105 Y27.896
N790 X308.859 Y27.718
N800 X308.6 Y27.559
N810 X308.33 Y27.42
N820 X308.051 Y27.302
N830 X307.763 Y27.205
N840 X307.468 Y27.131
N850 X307.169 Y27.079
N860 X306.867 Y27.05
N870 X306.563 Y27.044
N880 X306.26 Y27.061
N890 X305.959 Y27.101
N900 X305.662 Y27.163
N910 X305.371 Y27.248
N920 X305.086 Y27.355
N930 X304.811 Y27.483
N940 X304.546 Y27.631
N950 X304.293 Y27.799
N960 X304.054 Y27.986
N970 X303.941 Y28.088
N980 X243.401 Y88.629
N990 X243.255 Y88.791
N1000 X243.119 Y88.96
N1010 X242.992 Y89.137
N1020 X242.875 Y89.32
N1030 X242.768 Y89.51
N1040 X242.672 Y89.705
N1050 X242.586 Y89.905
N1060 X242.511 Y90.109
N1070 X242.447 Y90.317
N1080 X242.395 Y90.528
N1090 X242.354 Y90.742
N1100 X242.325 Y90.957
N1110 X242.308 Y91.174
N1120 X242.302 Y91.391
N1130 X242.309 Y91.609
N1140 X242.318 Y91.717
N1150 X242.353 Y91.984
N1160 X240.819 Y85.073 F100
N1170 Z-35.2
N1180 X240.784 Y84.807 F200
N1190 X240.774 Y84.699
N1200 X240.768 Y84.481
N1210 X240.774 Y84.264
N1220 X240.791 Y84.047
N1230 X240.82 Y83.831
N1240 X240.861 Y83.618
N1250 X240.913 Y83.406
N1260 X240.977 Y83.198
N1270 X241.052 Y82.994
N1280 X241.137 Y82.794
N1290 X241.234 Y82.599
N1300 X241.341 Y82.41
N1310 X241.458 Y82.227
N1320 X241.585 Y82.05
N1330 X241.721 Y81.88
N1340 X241.866 Y81.718
N1350 X241.943 Y81.642
N1360 X271.297 Y52.288
N1370 X271.361 Y52.228
N1380 X271.496 Y52.113
N1390 X271.635 Y52.004
N1400 X271.779 Y51.902
N1410 X271.927 Y51.806
N1420 X272.079 Y51.716
N1430 X272.235 Y51.633
N1440 X272.395 Y51.558
N1450 X272.558 Y51.489
N1460 X272.723 Y51.428
N1470 X272.891 Y51.373
N1480 X273.062 Y51.327
N1490 X273.234 Y51.288
N1500 X273.408 Y51.256
N1510 X273.583 Y51.233
N1520 X273.759 Y51.216
N1530 X273.847 Y51.212
N1540 X277.379
N1550 X278.452 Y46.379
N1560 X278.584 Y45.782 F100
N1570 X278.622 Y45.659
N1580 X278.688 Y45.442 F200
N1590 X278.726 Y45.338
N1600 X278.812 Y45.133
N1610 X278.909 Y44.933
N1620 X279.017 Y44.739
N1630 X279.136 Y44.551
N1640 X279.265 Y44.37
N1650 X279.404 Y44.197
N1660 X279.553 Y44.032
N1670 X279.631 Y43.953
N1680 X298.893 Y24.692
N1690 X299.004 Y24.588
N1700 X299.24 Y24.399
N1710 X299.49 Y24.228
N1720 X299.752 Y24.076
N1730 X300.025 Y23.944
N1740 X300.307 Y23.834
N1750 X300.597 Y23.744
N1760 X300.892 Y23.677
N1770 X301.042 Y23.655
N1780 X301.341 Y23.626
N1790 X301.444 Y23.616 F100
N1800 X307.511
N1810 X307.641 Y23.626
N1820 X307.901 Y23.646 F200
N1830 X307.986 Y23.657
N1840 X308.155 Y23.686
N1850 X308.323 Y23.722
N1860 X308.489 Y23.765
N1870 X308.652 Y23.815
N1880 X308.814 Y23.872
N1890 X308.973 Y23.936
N1900 X309.129 Y24.007
N1910 X309.282 Y24.084
N1920 X309.431 Y24.168
N1930 X309.577 Y24.258
N1940 X309.718 Y24.354
N1950 X309.856 Y24.457
N1960 X309.989 Y24.565
N1970 X310.117 Y24.678
N1980 X310.24 Y24.797
N1990 X310.299 Y24.859
N2000 X310.335 Y24.901
N2010 X310.554 Y25.156 F100
N2020 X310.707 Y25.373
N2030 X310.78 Y25.476 F200
N2040 X310.825 Y25.548
N2050 X310.911 Y25.697
N2060 X310.99 Y25.849
N2070 X311.062 Y26.004
N2080 X311.128 Y26.162
N2090 X311.186 Y26.323
N2100 X311.238 Y26.487
N2110 X311.283 Y26.652
N2120 X311.321 Y26.819
N2130 X311.351 Y26.988
N2140 X311.374 Y27.157
N2150 X311.39 Y27.328
N2160 X311.399 Y27.499
N2170 X311.4 Y27.67
N2180 X311.394 Y27.841
N2190 X311.381 Y28.012
N2200 X311.37 Y28.097
N2210 X311.338 Y28.285
N2220 Z-36.8 F100
N2230 X311.37 Y28.097 F200
N2240 X311.381 Y28.012
N2250 X311.394 Y27.841
N2260 X311.4 Y27.67
N2270 X311.399 Y27.499
N2280 X311.39 Y27.328
N2290 X311.374 Y27.157
N2300 X311.351 Y26.988
N2310 X311.321 Y26.819
N2320 X311.283 Y26.652
N2330 X311.238 Y26.487
N2340 X311.186 Y26.323
N2350 X311.128 Y26.162
N2360 X311.062 Y26.004
N2370 X310.99 Y25.849
N2380 X310.911 Y25.697
N2390 X310.825 Y25.548
N2400 X310.78 Y25.476
N2410 X310.707 Y25.373
N2420 X310.554 Y25.156 F100
N2430 X310.335 Y24.901
N2440 X310.299 Y24.859 F200
N2450 X310.24 Y24.797
N2460 X310.117 Y24.678
N2470 X309.989 Y24.565
N2480 X309.856 Y24.457
N2490 X309.718 Y24.354
N2500 X309.577 Y24.258
N2510 X309.431 Y24.168
N2520 X309.282 Y24.084
N2530 X309.129 Y24.007
N2540 X308.973 Y23.936
N2550 X308.814 Y23.872
N2560 X308.652 Y23.815
N2570 X308.489 Y23.765
N2580 X308.323 Y23.722
N2590 X308.155 Y23.686
N2600 X307.986 Y23.657
N2610 X307.901 Y23.646
N2620 X307.641 Y23.626
N2630 Z-38.4 F100
N2640 X307.901 Y23.646 F200
N2650 X307.986 Y23.657
N2660 X308.155 Y23.686
N2670 X308.323 Y23.722
N2680 X308.489 Y23.765
N2690 X308.652 Y23.815
N2700 X308.814 Y23.872
N2710 X308.973 Y23.936
N2720 X309.129 Y24.007
N2730 X309.282 Y24.084
N2740 X309.431 Y24.168
N2750 X309.577 Y24.258
N2760 X309.718 Y24.354
N2770 X309.856 Y24.457
N2780 X309.989 Y24.565
N2790 X310.117 Y24.678
N2800 X310.24 Y24.797
N2810 X310.299 Y24.859
N2820 X310.335 Y24.901
N2830 X310.554 Y25.156 F100
N2840 X310.707 Y25.373
N2850 X310.78 Y25.476 F200
N2860 X310.825 Y25.548
N2870 X310.911 Y25.697
N2880 X310.99 Y25.849
N2890 X311.062 Y26.004
N2900 X311.128 Y26.162
N2910 X311.186 Y26.323
N2920 X311.238 Y26.487
N2930 X311.283 Y26.652
N2940 X311.321 Y26.819
N2950 X311.351 Y26.988
N2960 X311.374 Y27.157
N2970 X311.39 Y27.328
N2980 X311.399 Y27.499
N2990 X311.4 Y27.67
N3000 X311.394 Y27.841
N3010 X311.381 Y28.012
N3020 X311.37 Y28.097
N3030 X311.338 Y28.285
N3040 Z-40 F100
N3050 X311.37 Y28.097 F200
N3060 X311.381 Y28.012
N3070 X311.394 Y27.841
N3080 X311.4 Y27.67
N3090 X311.399 Y27.499
N3100 X311.39 Y27.328
N3110 X311.374 Y27.157
N3120 X311.351 Y26.988
N3130 X311.321 Y26.819
N3140 X311.283 Y26.652
N3150 X311.238 Y26.487
N3160 X311.186 Y26.323
N3170 X311.128 Y26.162
N3180 X311.062 Y26.004
N3190 X310.99 Y25.849
N3200 X310.911 Y25.697
N3210 X310.825 Y25.548
N3220 X310.78 Y25.476
N3230 X310.707 Y25.373
N3240 X310.554 Y25.156 F100
N3250 X310.335 Y24.901
N3260 X310.299 Y24.859 F200
N3270 X310.24 Y24.797
N3280 X310.117 Y24.678
N3290 X309.989 Y24.565
N3300 X309.856 Y24.457
N3310 X309.718 Y24.354
N3320 X309.577 Y24.258
N3330 X309.431 Y24.168
N3340 X309.282 Y24.084
N3350 X309.129 Y24.007
N3360 X308.973 Y23.936
N3370 X308.814 Y23.872
N3380 X308.652 Y23.815
N3390 X308.489 Y23.765
N3400 X308.323 Y23.722
N3410 X308.155 Y23.686
N3420 X307.986 Y23.657
N3430 X307.901 Y23.646
N3440 X307.641 Y23.626
N3450 Z-36.8 F100
N3460 X307.511 Y23.616
N3470 X292.999
N3480 X292.896 Y23.626
N3490 X292.597 Y23.655 F200
N3500 X292.447 Y23.677
N3510 X292.152 Y23.744
N3520 X291.862 Y23.834
N3530 X291.58 Y23.944
N3540 X291.308 Y24.076
N3550 X291.045 Y24.228
N3560 X290.795 Y24.399
N3570 X290.559 Y24.588
N3580 X290.448 Y24.692
N3590 X281.963 Y33.177
N3600 X281.814 Y33.342
N3610 X281.675 Y33.516
N3620 X281.546 Y33.697
N3630 X281.427 Y33.884
N3640 X281.319 Y34.078
N3650 X281.222 Y34.278
N3660 X281.136 Y34.483
N3670 X281.098 Y34.588
N3680 X281.033 Y34.802
N3690 X282.882 Y26.475 F100
N3700 Z-38.4
N3710 X282.966 Y26.212 F200
N3720 X283.013 Y26.087
N3730 X283.124 Y25.842
N3740 X283.251 Y25.605
N3750 X283.393 Y25.378
N3760 X283.551 Y25.16
N3770 X283.722 Y24.954
N3780 X283.908 Y24.759
N3790 X284.105 Y24.578
N3800 X284.315 Y24.41
N3810 X284.535 Y24.256
N3820 X284.765 Y24.117
N3830 X285.004 Y23.995
N3840 X285.25 Y23.888
N3850 X285.503 Y23.798
N3860 X285.762 Y23.725
N3870 X286.025 Y23.67
N3880 X286.157 Y23.652
N3890 X286.437 Y23.626
N3900 Z-40 F100
N3910 X286.157 Y23.652 F200
N3920 X286.025 Y23.67
N3930 X285.762 Y23.725
N3940 X285.503 Y23.798
N3950 X285.25 Y23.888
N3960 X285.004 Y23.995
N3970 X284.765 Y24.117
N3980 X284.535 Y24.256
N3990 X284.315 Y24.41
N4000 X284.105 Y24.578
N4010 X283.908 Y24.759
N4020 X283.722 Y24.954
N4030 X283.551 Y25.16
N4040 X283.393 Y25.378
N4050 X283.251 Y25.605
N4060 X283.124 Y25.842
N4070 X283.013 Y26.087
N4080 X282.966 Y26.212
N4090 X282.882 Y26.475
N4100 Z-36.8 F100
N4110 X281.017 Y34.854
N4120 X280.994 Y34.927
N4130 X278.452 Y46.379
N4140 X277.379 Y51.212 F200
N4150 X272.055
N4160 X267.094 F100
N4170 X265.403 F200
N4180 X265.314 Y51.216
N4190 X265.138 Y51.233
N4200 X264.963 Y51.256
N4210 X264.789 Y51.288
N4220 X264.617 Y51.327
N4230 X264.447 Y51.373
N4240 X264.279 Y51.428
N4250 X264.113 Y51.489
N4260 X263.95 Y51.558
N4270 X263.791 Y51.633
N4280 X263.634 Y51.716
N4290 X263.482 Y51.806
N4300 X263.334 Y51.902
N4310 X263.19 Y52.004
N4320 X263.051 Y52.113
N4330 X262.917 Y52.228
N4340 X262.852 Y52.288
N4350 X240.332 Y74.808
N4360 X240.187 Y74.97
N4370 X240.051 Y75.14
N4380 X239.924 Y75.316
N4390 X239.807 Y75.5
N4400 X239.7 Y75.689
N4410 X239.603 Y75.884
N4420 X239.517 Y76.084
N4430 X239.442 Y76.288
N4440 X239.379 Y76.496
N4450 X239.327 Y76.707
N4460 X239.286 Y76.921
N4470 X239.257 Y77.136
N4480 X239.239 Y77.353
N4490 X239.234 Y77.571
N4500 X239.24 Y77.788
N4510 X239.249 Y77.897
N4520 X239.284 Y78.163
N4530 X237.751 Y71.256 F100
N4540 Z-38.4
N4550 X237.713 Y70.962 F200
N4560 X237.705 Y70.86
N4570 X237.699 Y70.654
N4580 X237.705 Y70.449
N4590 X237.72 Y70.244
N4600 X237.746 Y70.04
N4610 X237.783 Y69.838
N4620 X237.829 Y69.638
N4630 X237.886 Y69.44
N4640 X237.953 Y69.246
N4650 X238.03 Y69.056
N4660 X238.117 Y68.869
N4670 X238.213 Y68.688
N4680 X238.318 Y68.511
N4690 X238.432 Y68.34
N4700 X238.554 Y68.175
N4710 X238.685 Y68.017
N4720 X238.755 Y67.941
N4730 X255.887 Y50.808
N4740 X255.962 Y50.738
N4750 X256.12 Y50.604
N4760 X256.283 Y50.479
N4770 X256.453 Y50.363
N4780 X256.629 Y50.256
N4790 X256.81 Y50.157
N4800 X256.996 Y50.068
N4810 X257.186 Y49.989
N4820 X257.38 Y49.92
N4830 X257.578 Y49.861
N4840 X257.778 Y49.812
N4850 X257.98 Y49.773
N4860 X258.184 Y49.745
N4870 X258.39 Y49.727
N4880 X258.596 Y49.72
N4890 X258.802 Y49.724
N4900 X259.007 Y49.738
N4910 X259.212 Y49.763
N4920 X259.415 Y49.798
N4930 X259.616 Y49.844
N4940 X259.814 Y49.9
N4950 X260.009 Y49.966
N4960 X260.201 Y50.042
N4970 X260.388 Y50.127
N4980 X260.571 Y50.223
N4990 X260.748 Y50.327
N5000 X260.92 Y50.441
N5010 X261.086 Y50.563
N5020 X261.245 Y50.694
N5030 X261.398 Y50.832
N5040 X261.543 Y50.979
N5050 X261.68 Y51.132
N5060 X261.745 Y51.212
N5070 X267.094
N5080 X272.057 F100
N5090 X277.379 F200
N5100 X278.452 Y46.379
N5110 Z-40 F100
N5120 X277.379 Y51.212 F200
N5130 X272.055
N5140 X267.094 F100
N5150 X262.169 F200
N5160 X261.087 Y46.339
N5170 X261 Y45.946 F100
N5180 X260.94 Y45.728
N5190 X260.893 Y45.559 F200
N5200 X260.862 Y45.464
N5210 X260.79 Y45.276
N5220 X260.708 Y45.093
N5230 X260.617 Y44.914
N5240 X260.517 Y44.74
N5250 X260.409 Y44.57
N5260 X260.293 Y44.407
N5270 X260.168 Y44.25
N5280 X260.035 Y44.099
N5290 X259.896 Y43.955
N5300 X259.749 Y43.818
N5310 X259.595 Y43.688
N5320 X259.436 Y43.567
N5330 X259.27 Y43.453
N5340 X259.099 Y43.349
N5350 X258.922 Y43.252
N5360 X258.832 Y43.209
N5370 X258.483 Y43.061
N5380 X258.462 Y43.053 F100
N5390 X258.079 Y42.935
N5400 X257.983 Y42.915
N5410 X257.685 Y42.856 F200
N5420 X257.586 Y42.841
N5430 X257.386 Y42.821
N5440 X257.186 Y42.811
N5450 X256.985 Y42.812
N5460 X256.784 Y42.822
N5470 X256.585 Y42.843
N5480 X256.386 Y42.873
N5490 X256.19 Y42.914
N5500 X255.995 Y42.964
N5510 X255.804 Y43.024
N5520 X255.615 Y43.093
N5530 X255.431 Y43.172
N5540 X255.25 Y43.26
N5550 X255.074 Y43.357
N5560 X254.904 Y43.463
N5570 X254.738 Y43.577
N5580 X254.659 Y43.638
N5590 X254.444 Y43.821
N5600 G0 Z10
N5610 X237.196 Y61.069
N5620 Z0
N5630 G1 Z-40 F100
N5640 X237.081 Y61.197 F200
N5650 X237.019 Y61.271
N5660 X236.904 Y61.426
N5670 X236.796 Y61.587
N5680 X236.695 Y61.752
N5690 X236.603 Y61.922
N5700 X236.52 Y62.096
N5710 X236.445 Y62.274
N5720 X236.378 Y62.456
N5730 X236.32 Y62.64
N5740 X236.272 Y62.828
N5750 X236.232 Y63.017
N5760 X236.202 Y63.208
N5770 X236.18 Y63.4
N5780 X236.168 Y63.593
N5790 X236.166 Y63.786
N5800 X236.173 Y63.979
N5810 X236.181 Y64.076
N5820 X236.216 Y64.342
N5830 G0 Z10
N5840 X268.335 Y79.551
N5850 Z0
N5860 G1 Z-32 F100
N5870 X268.432 Y79.6 F200
N5880 X268.629 Y79.688
N5890 X268.831 Y79.764
N5900 X269.037 Y79.83
N5910 X269.246 Y79.885
N5920 X269.458 Y79.928
N5930 X269.672 Y79.96
N5940 X269.887 Y79.98
N5950 X269.995 Y79.984
N5960 X270.991
N5970 X269.774 Y85.464
N5980 X268.671 Y80.498
N5990 X268.644 Y80.375
N6000 X268.575 Y80.132
N6010 X268.491 Y79.895
N6020 X268.392 Y79.664
N6030 X268.335 Y79.551
N6040 X268.557 Y79.984 F100
N6050 Z-33.6
N6060 X270.991 F200
N6070 X269.774 Y85.464
N6080 X268.557 Y79.984
N6090 Z-35.2 F100
N6100 X270.991 F200
N6110 X269.774 Y85.464
N6120 X268.859 Y81.341
N6130 X268.557 Y79.984
N6140 Z-36.8 F100
N6150 X270.991 F200
N6160 X269.774 Y85.464
N6170 X268.721 Y80.723
N6180 X268.557 Y79.984
N6190 Z-38.4 F100
N6200 X270.991 F200
N6210 X269.774 Y85.464
N6220 X268.681 Y80.54
N6230 X268.557 Y79.984
N6240 Z-40 F100
N6250 X270.991 F200
N6260 X269.774 Y85.464
N6270 X268.675 Y80.515
N6280 X268.557 Y79.984
N6290 G0 Z10
N6300 X128.248 Y121.568
N6310 Z0
N6320 G1 Z-20.8 F100
N6330 X128.229 Y122.216 F200
N6340 X128.222 Y122.456 F100
N6350 X128.15 Y123.619
N6360 X128.077 Y124.39
N6370 X128.047 Y124.698 F200
N6380 X128.04 Y124.779 F100
N6390 X127.976 Y125.273
N6400 X127.921 Y125.703 F200
N6410 X127.891 Y125.935 F100
N6420 X127.782 Y126.607
N6430 X127.768 Y126.688 F200
N6440 X127.704 Y127.085 F100
N6450 X127.639 Y127.445
N6460 X127.495 Y128.163
N6470 X127.336 Y128.877
N6480 X127.162 Y129.588
N6490 X126.974 Y130.295
N6500 X126.771 Y130.997
N6510 X126.553 Y131.696
N6520 X126.321 Y132.39
N6530 X126.197 Y132.734
N6540 X125.964 Y133.356 F200
N6550 X125.797 Y133.8 F100
N6560 X125.756 Y133.882
N6570 X125.617 Y134.155 F200
N6580 X125.536 Y134.296
N6590 X125.353 Y134.563
N6600 X125.149 Y134.815
N6610 X124.925 Y135.049
N6620 X124.683 Y135.265
N6630 X124.425 Y135.46
N6640 X124.151 Y135.634
N6650 X123.864 Y135.785
N6660 X123.566 Y135.912
N6670 X123.259 Y136.015
N6680 X122.944 Y136.093
N6690 X122.624 Y136.145
N6700 X122.301 Y136.171
N6710 X121.977
N6720 X121.654 Y136.144
N6730 X121.334 Y136.092
N6740 X121.02 Y136.014
N6750 X120.713 Y135.91
N6760 X120.415 Y135.783
N6770 X120.128 Y135.631
N6780 X119.855 Y135.457
N6790 X119.597 Y135.262
N6800 X119.355 Y135.046
N6810 X119.131 Y134.811
N6820 X118.927 Y134.559
N6830 X118.745 Y134.291
N6840 X118.584 Y134.01
N6850 X118.447 Y133.716
N6860 X118.334 Y133.413
N6870 X118.245 Y133.101
N6880 X118.183 Y132.783
N6890 X118.146 Y132.461
N6900 X118.141 Y132.299
N6910 Y47.474
N6920 X118.146 Y47.309
N6930 X118.184 Y46.981
N6940 X118.249 Y46.658
N6950 X118.34 Y46.34
N6960 X118.457 Y46.032
N6970 X118.599 Y45.734
N6980 X118.766 Y45.449
N6990 X118.955 Y45.179
N7000 X119.165 Y44.925
N7010 X119.396 Y44.689
N7020 X119.646 Y44.473
N7030 X119.912 Y44.278
N7040 X120.194 Y44.106
N7050 X120.488 Y43.958
N7060 X120.794 Y43.834
N7070 X121.109 Y43.736
N7080 X121.431 Y43.665
N7090 X121.758 Y43.62
N7100 X122.088 Y43.602
N7110 X122.418 Y43.611
N7120 X122.746 Y43.648
N7130 X123.069 Y43.711
N7140 X123.387 Y43.801
N7150 X123.696 Y43.916
N7160 X123.994 Y44.057
N7170 X124.28 Y44.222
N7180 X124.552 Y44.41
N7190 X124.807 Y44.619
N7200 X125.043 Y44.849
N7210 X125.261 Y45.097
N7220 X125.456 Y45.363
N7230 X125.63 Y45.643
N7240 X125.705 Y45.791
N7250 X125.777 Y45.953
N7260 X125.87 Y46.161 F100
N7270 X125.975 Y46.43
N7280 X126.175 Y46.973
N7290 X126.271 Y47.246
N7300 X126.268 Y47.247
N7310 Z-24
N7320 X126.281 Y47.285 F200
N7330 X126.288 Y47.306 F100
N7340 Z-25.6
N7350 X126.259 Y47.222 F200
N7360 X126.267 Y47.244 F100
N7370 Z-27.2
N7380 X126.28 Y47.282 F200
N7390 Z-22.4 F100
N7400 X126.286 Y47.292
N7410 X126.187 Y47.007
N7420 X125.979 Y46.442
N7430 X125.87 Y46.161
N7440 X125.724 Y45.785
N7450 X125.416 Y45.039
N7460 X125.091 Y44.302
N7470 X124.748 Y43.571
N7480 X124.39 Y42.849
N7490 X124.014 Y42.135
N7500 X123.623 Y41.43
N7510 X123.216 Y40.734
N7520 X122.792 Y40.048
N7530 X122.353 Y39.371
N7540 X121.899 Y38.704
N7550 X121.43 Y38.049
N7560 X120.946 Y37.404
N7570 X120.447 Y36.77
N7580 X119.934 Y36.148
N7590 X119.407 Y35.538
N7600 X119.136 Y35.239
N7610 X118.998 Y35.1
N7620 X118.856 Y34.958 F200
N7630 X118.75 Y34.862
N7640 X118.526 Y34.686
N7650 X118.289 Y34.526
N7660 X118.042 Y34.384
N7670 X117.785 Y34.259
N7680 X117.52 Y34.153
N7690 X117.249 Y34.067
N7700 X116.971 Y34
N7710 X116.69 Y33.952
N7720 X116.406 Y33.925
N7730 X116.121 Y33.919
N7740 X115.836 Y33.932
N7750 X115.553 Y33.966
N7760 X115.272 Y34.02
N7770 X114.997 Y34.094
N7780 X114.727 Y34.187
N7790 X114.465 Y34.299
N7800 X114.211 Y34.429
N7810 X113.967 Y34.578
N7820 X113.735 Y34.743
N7830 X113.515 Y34.924
N7840 X113.308 Y35.121
N7850 X113.116 Y35.332
N7860 X112.939 Y35.556
N7870 X112.779 Y35.792
N7880 X112.636 Y36.039
N7890 X112.511 Y36.295
N7900 X112.404 Y36.56
N7910 X112.317 Y36.831
N7920 X112.249 Y37.108
N7930 X112.201 Y37.39
N7940 X112.173 Y37.674
N7950 X112.169 Y37.816
N7960 Y141.957
N7970 X112.173 Y142.103
N7980 X112.202 Y142.395
N7990 X112.253 Y142.684
N8000 X112.324 Y142.968
N8010 X112.416 Y143.247
N8020 X112.528 Y143.518
N8030 X112.66 Y143.78
N8040 X112.81 Y144.031
N8050 X112.979 Y144.271
N8060 X113.165 Y144.499
N8070 X113.366 Y144.711
N8080 X113.583 Y144.909
N8090 X113.814 Y145.09
N8100 X114.057 Y145.254
N8110 X114.312 Y145.399
N8120 X114.576 Y145.526
N8130 X114.85 Y145.632
N8140 X115.13 Y145.719
N8150 X115.416 Y145.785
N8160 X115.706 Y145.829
N8170 X115.998 Y145.853
N8180 X116.291 Y145.854
N8190 X116.584 Y145.835
N8200 X116.874 Y145.794
N8210 X117.161 Y145.732
N8220 X117.442 Y145.649
N8230 X117.717 Y145.545
N8240 X117.983 Y145.422
N8250 X118.239 Y145.28
N8260 X118.485 Y145.119
N8270 X118.718 Y144.941
N8280 X118.937 Y144.747
N8290 X119.039 Y144.641
N8300 X119.589 Y144.017
N8310 X119.847 Y143.724 F100
N8320 X119.978 Y143.564
N8330 X120.265 Y143.215 F200
N8340 X120.622 Y142.78 F100
N8350 X121.082 Y142.179
N8360 X121.301 Y141.892 F200
N8370 X121.365 Y141.809 F100
N8380 X121.826 Y141.161
N8390 X121.973 Y140.954 F200
N8400 X122.073 Y140.813 F100
N8410 X122.604 Y140.009
N8420 X122.614 Y139.995 F200
N8430 X122.658 Y139.927 F100
N8440 X122.657 Y139.926
N8450 Z-24
N8460 X122.597 Y140.02 F200
N8470 X122.462 Y140.233 F100
N8480 X122.082 Y140.791
N8490 X121.905 Y141.05 F200
N8500 X121.781 Y141.233 F100
N8510 X121.473 Y141.653
N8520 X121.184 Y142.047 F200
N8530 X121.066 Y142.208 F100
N8540 X120.318 Y143.159
N8550 X120.161 Y143.345
N8560 X119.833 Y143.734 F200
N8570 X119.538 Y144.083 F100
N8580 X119.426 Y144.206
N8590 X118.726 Y144.98 F200
N8600 X118.307 Y145.412
N8610 X117.884 Y145.849 F100
N8620 X117.79 Y145.94
N8630 X117.412 Y146.305 F200
N8640 X117.013 Y146.689 F100
N8650 X116.483 Y147.166
N8660 X116.162 Y147.454 F200
N8670 X116.114 Y147.498 F100
N8680 X115.188 Y148.276
N8690 X114.954 Y148.459
N8700 X114.494 Y148.819 F200
N8710 X114.235 Y149.021 F100
N8720 X113.994 Y149.204
N8730 X113.505 Y149.56
N8740 X113.01 Y149.908
N8750 X112.51 Y150.247
N8760 X112.256 Y150.413
N8770 X112.243 Y150.42
N8780 X112.132 Y150.486 F200
N8790 X111.9 Y150.604
N8800 X111.661 Y150.706
N8810 X111.417 Y150.793
N8820 X111.167 Y150.864
N8830 X110.913 Y150.919
N8840 X110.656 Y150.957
N8850 X110.397 Y150.978
N8860 X110.137 Y150.983
N8870 X109.877 Y150.97
N8880 X109.619 Y150.941
N8890 X109.364 Y150.895
N8900 X109.111 Y150.833
N8910 X108.864 Y150.754
N8920 X108.622 Y150.659
N8930 X108.386 Y150.549
N8940 X108.159 Y150.424
N8950 X107.939 Y150.285
N8960 X107.73 Y150.131
N8970 X107.53 Y149.965
N8980 X107.342 Y149.785
N8990 X107.166 Y149.594
N9000 X107.003 Y149.392
N9010 X106.853 Y149.18
N9020 X106.718 Y148.958
N9030 X106.597 Y148.728
N9040 X106.491 Y148.491
N9050 X106.4 Y148.247
N9060 X106.326 Y147.998
N9070 X106.268 Y147.745
N9080 X106.227 Y147.488
N9090 X106.202 Y147.23
N9100 X106.198 Y147.1
N9110 Y32.673
N9120 X106.202 Y32.546
N9130 X106.226 Y32.294
N9140 X106.265 Y32.045
N9150 X106.32 Y31.798
N9160 X106.391 Y31.555
N9170 X106.477 Y31.317
N9180 X106.578 Y31.085
N9190 X106.693 Y30.86
N9200 X106.822 Y30.642
N9210 X106.965 Y30.433
N9220 X107.121 Y30.234
N9230 X107.289 Y30.045
N9240 X107.468 Y29.866
N9250 X107.659 Y29.7
N9260 X107.859 Y29.546
N9270 X108.069 Y29.404
N9280 X108.287 Y29.277
N9290 X108.513 Y29.163
N9300 X108.746 Y29.064
N9310 X108.985 Y28.98
N9320 X109.228 Y28.911
N9330 X109.475 Y28.858
N9340 X109.726 Y28.82
N9350 X109.978 Y28.798
N9360 X110.231 Y28.792
N9370 X110.483 Y28.802
N9380 X110.735 Y28.828
N9390 X110.984 Y28.87
N9400 X111.231 Y28.928
N9410 X111.473 Y29.001
N9420 X111.71 Y29.089
N9430 X111.941 Y29.192
N9440 X112.053 Y29.251
N9450 X112.204 Y29.339
N9460 X112.402 Y29.456 F100
N9470 X112.661 Y29.628
N9480 X113.175 Y29.98
N9490 X113.428 Y30.161
N9500 X113.669 Y30.338 F200
N9510 X113.685 Y30.35 F100
N9520 Z-25.6
N9530 X113.318 Y30.086 F200
N9540 X113.074 Y29.911 F100
N9550 X112.704 Y29.654
N9560 X111.951 Y29.16
N9570 X111.186 Y28.685
N9580 X110.409 Y28.23
N9590 X110.015 Y28.013
N9600 X109.561 Y27.772
N9610 X109.252 Y27.608 F200
N9620 X108.955 Y27.451 F100
N9630 X108.554 Y27.247
N9640 X107.741 Y26.859
N9650 X106.919 Y26.493
N9660 X106.087 Y26.147
N9670 X105.667 Y25.985
N9680 X105.595 Y25.961
N9690 X105.286 Y25.859 F200
N9700 X105.177 Y25.829
N9710 X104.956 Y25.782
N9720 X104.733 Y25.747
N9730 X104.508 Y25.724
N9740 X104.282 Y25.715
N9750 X104.056 Y25.718
N9760 X103.831 Y25.734
N9770 X103.606 Y25.763
N9780 X103.384 Y25.804
N9790 X103.165 Y25.858
N9800 X102.949 Y25.924
N9810 X102.736 Y26.002
N9820 X102.529 Y26.092
N9830 X102.327 Y26.193
N9840 X102.131 Y26.306
N9850 X101.942 Y26.43
N9860 X101.76 Y26.564
N9870 X101.586 Y26.708
N9880 X101.421 Y26.862
N9890 X101.264 Y27.025
N9900 X101.117 Y27.196
N9910 X100.979 Y27.376
N9920 X100.852 Y27.563
N9930 X100.736 Y27.757
N9940 X100.631 Y27.957
N9950 X100.537 Y28.162
N9960 X100.456 Y28.373
N9970 X100.386 Y28.588
N9980 X100.328 Y28.806
N9990 X100.283 Y29.028
N10 X100.25 Y29.252
N20 X100.23 Y29.477
N30 X100.227 Y29.59
N40 Y150.183
N50 X100.23 Y150.293
N60 X100.249 Y150.513
N70 X100.28 Y150.731
N80 X100.324 Y150.948
N90 X100.379 Y151.161
N100 X100.445 Y151.371
N110 X100.523 Y151.578
N120 X100.613 Y151.779
N130 X100.713 Y151.976
N140 X100.824 Y152.166
N150 X100.945 Y152.35
N160 X101.076 Y152.528
N170 X101.217 Y152.697
N180 X101.367 Y152.859
N190 X101.526 Y153.012
N200 X101.692 Y153.157
N210 X101.867 Y153.292
N220 X102.049 Y153.417
N230 X102.237 Y153.532
N240 X102.431 Y153.636
N250 X102.631 Y153.729
N260 X102.835 Y153.812
N270 X103.044 Y153.883
N280 X103.257 Y153.942
N290 X103.472 Y153.99
N300 X103.69 Y154.025
N310 X103.909 Y154.049
N320 X104.129 Y154.06
N330 X104.35
N340 X104.57 Y154.047
N350 X104.789 Y154.022
N360 X105.006 Y153.985
N370 X105.114 Y153.961
N380 X105.419 Y153.876
N390 X105.491 Y153.856 F100
N400 X105.785 Y153.739
N410 X106.588 Y153.418 F200
N420 X107.34 Y153.088
N430 X107.669 Y152.944 F100
N440 X107.795 Y152.884
N450 X108.335 Y152.625 F200
N460 X108.734 Y152.434 F100
N470 X109.782 Y151.888
N480 X110.531 Y151.466
N490 X110.595 Y151.43 F200
N500 X110.81 Y151.308 F100
N510 X111.819 Y150.694
N520 X111.91 Y150.634
N530 X112.432 Y150.292 F200
N540 X112.806 Y150.046 F100
N550 X113.771 Y149.366
N560 X114.609 Y148.732
N570 X114.713 Y148.654 F200
N580 X114.953 Y148.46
N590 X115.631 Y147.91 F100
N600 X116.023 Y147.57
N610 X116.393 Y147.25 F200
N620 X116.523 Y147.137 F100
N630 X117.389 Y146.334
N640 X117.507 Y146.217
N650 X117.95 Y145.777 F200
N660 X118.227 Y145.502 F100
N670 X118.418 Y145.3
N680 X119.037 Y144.643 F200
N690 X119.596 Y144.009
N700 X119.845 Y143.726 F100
N710 X119.974 Y143.57
N720 X120.272 Y143.206 F200
N730 X120.621 Y142.782 F100
N740 X121.072 Y142.191
N750 X121.303 Y141.89 F200
N760 X121.363 Y141.811 F100
N770 X121.817 Y141.174
N780 X121.974 Y140.953 F200
N790 X122.072 Y140.815 F100
N800 X122.601 Y140.013
N810 X122.615 Y139.994 F200
N820 Z-22.4 F100
N830 X122.747 Y139.794
N840 X122.911 Y139.536
N850 X123.229 Y139.015
N860 X123.539 Y138.488
N870 X123.84 Y137.956
N880 X124.131 Y137.419
N890 X124.413 Y136.877
N900 X124.686 Y136.33
N910 X124.949 Y135.778
N920 X125.076 Y135.5
N930 X125.221 Y135.167
N940 X125.412 Y134.73 F200
N950 X125.564 Y134.38 F100
N960 X125.616 Y134.247
N970 X125.737 Y133.94 F200
N980 X126.013 Y133.243 F100
N990 X126.067 Y133.09
N1000 X126.251 Y132.573 F200
N1010 X126.422 Y132.091 F100
N1020 X126.561 Y131.651
N1030 X126.669 Y131.311 F200
N1040 X126.791 Y130.926 F100
N1050 X126.859 Y130.683
N1060 X126.909 Y130.5 F200
N1070 X127.119 Y129.749 F100
N1080 X127.196 Y129.454
N1090 X127.34 Y128.86
N1100 X127.473 Y128.263
N1110 X127.596 Y127.665
N1120 X127.653 Y127.364
N1130 X127.759 Y126.74
N1140 X127.783 Y126.598 F200
N1150 X127.858 Y126.16 F100
N1160 X127.906 Y125.798
N1170 X127.969 Y125.332 F200
N1180 X128.02 Y124.949 F100
N1190 X128.036 Y124.787
N1200 X128.081 Y124.335 F200
N1210 X128.141 Y123.732 F100
N1220 X128.22 Y122.513
N1230 X128.228 Y122.244
N1240 X128.248 Y121.56 F200
N1250 Y121.568 F100
N1260 Z-24
N1270 X128.229 Y122.216 F200
